Assets/LUTs/coolLUT.CUBE
#Created by: Adobe Photoshop Export Color Lookup Plugin
TITLE "coolLUT"
#LUT size
LUT_3D_SIZE 8
#data domain
#LUT data points
DOMAIN_MIN 0.000000 0.000000 0.000000
DOMAIN_MAX 0.903226 0.903226 0.903226
0.000000 0.000000 0.000000
0.049072 0.075378 0.080017
0.098083 0.150726 0.160004
0.147125 0.226074 0.239990
0.196136 0.301422 0.319977
0.245178 0.376770 0.399994
0.294220 0.452148 0.479980
0.343262 0.527496 0.559998
0.049072 0.075378 0.080017
0.049072 0.075378 0.080017
0.098083 0.150726 0.160004
0.147125 0.226074 0.239990
0.196136 0.301422 0.319977
0.245178 0.376770 0.399994
0.294220 0.452148 0.479980
0.343262 0.527496 0.559998
0.098083 0.150726 0.160004
0.098083 0.150726 0.160004
0.098083 0.150726 0.160004
0.147125 0.226074 0.239990
0.196136 0.301422 0.319977
0.245178 0.376770 0.399994
0.294220 0.452148 0.479980
0.343262 0.527496 0.559998
0.147125 0.226074 0.239990
0.147125 0.226074 0.239990
0.147125 0.226074 0.239990
0.147125 0.226074 0.239990
0.196136 0.301422 0.319977
0.245178 0.376770 0.399994
0.294220 0.452148 0.479980
0.343262 0.527496 0.559998
0.196136 0.301422 0.319977
0.196136 0.301422 0.319977
0.196136 0.301422 0.319977
0.196136 0.301422 0.319977
0.196136 0.301422 0.319977
0.245178 0.376770 0.399994
0.294220 0.452148 0.479980
0.343262 0.527496 0.559998
0.245178 0.376770 0.399994
0.245178 0.376770 0.399994
0.245178 0.376770 0.399994
0.245178 0.376770 0.399994
0.245178 0.376770 0.399994
0.245178 0.376770 0.399994
0.294220 0.452148 0.479980
0.343262 0.527496 0.559998
0.294220 0.452148 0.479980
0.294220 0.452148 0.479980
0.294220 0.452148 0.479980
0.294220 0.452148 0.479980
0.294220 0.452148 0.479980
0.294220 0.452148 0.479980
0.294220 0.452148 0.479980
0.343262 0.527496 0.559998
0.343262 0.527496 0.559998
0.343262 0.527496 0.559998
0.343262 0.527496 0.559998
0.343262 0.527496 0.559998
0.343262 0.527496 0.559998
0.343262 0.527496 0.559998
0.343262 0.527496 0.559998
0.343262 0.527496 0.559998
0.049072 0.075378 0.080017
0.049072 0.075378 0.080017
0.098083 0.150726 0.160004
0.147125 0.226074 0.239990
0.196136 0.301422 0.319977
0.245178 0.376770 0.399994
0.294220 0.452148 0.479980
0.343262 0.527496 0.559998
0.049072 0.075378 0.080017
0.098083 0.150726 0.160004
0.147125 0.226074 0.239990
0.196136 0.301422 0.319977
0.245178 0.376770 0.399994
0.294220 0.452148 0.479980
0.343262 0.527496 0.559998
0.399994 0.597412 0.632233
0.098083 0.150726 0.160004
0.147125 0.226074 0.239990
0.147125 0.226074 0.239990
0.196136 0.301422 0.319977
0.245178 0.376770 0.399994
0.294220 0.452148 0.479980
0.343262 0.527496 0.559998
0.399994 0.597412 0.632233
0.147125 0.226074 0.239990
0.196136 0.301422 0.319977
0.196136 0.301422 0.319977
0.196136 0.301422 0.319977
0.245178 0.376770 0.399994
0.294220 0.452148 0.479980
0.343262 0.527496 0.559998
0.399994 0.597412 0.632233
0.196136 0.301422 0.319977
0.245178 0.376770 0.399994
0.245178 0.376770 0.399994
0.245178 0.376770 0.399994
0.245178 0.376770 0.399994
0.294220 0.452148 0.479980
0.343262 0.527496 0.559998
0.399994 0.597412 0.632233
0.245178 0.376770 0.399994
0.294220 0.452148 0.479980
0.294220 0.452148 0.479980
0.294220 0.452148 0.479980
0.294220 0.452148 0.479980
0.294220 0.452148 0.479980
0.343262 0.527496 0.559998
0.399994 0.597412 0.632233
0.294220 0.452148 0.479980
0.343262 0.527496 0.559998
0.343262 0.527496 0.559998
0.343262 0.527496 0.559998
0.343262 0.527496 0.559998
0.343262 0.527496 0.559998
0.343262 0.527496 0.559998
0.399994 0.597412 0.632233
0.343262 0.527496 0.559998
0.399994 0.597412 0.632233
0.399994 0.597412 0.632233
0.399994 0.597412 0.632233
0.399994 0.597412 0.632233
0.399994 0.597412 0.632233
0.399994 0.597412 0.632233
0.399994 0.597412 0.632233
0.098083 0.150726 0.160004
0.098083 0.150726 0.160004
0.098083 0.150726 0.160004
0.147125 0.226074 0.239990
0.196136 0.301422 0.319977
0.245178 0.376770 0.399994
0.294220 0.452148 0.479980
0.343262 0.527496 0.559998
0.098083 0.150726 0.160004
0.147125 0.226074 0.239990
0.147125 0.226074 0.239990
0.196136 0.301422 0.319977
0.245178 0.376770 0.399994
0.294220 0.452148 0.479980
0.343262 0.527496 0.559998
0.399994 0.597412 0.632233
0.098083 0.150726 0.160004
0.147125 0.226074 0.239990
0.196136 0.301422 0.319977
0.245178 0.376770 0.399994
0.294220 0.452148 0.479980
0.343262 0.527496 0.559998
0.399994 0.597412 0.632233
0.480011 0.651093 0.681274
0.147125 0.226074 0.239990
0.196136 0.301422 0.319977
0.245178 0.376770 0.399994
0.245178 0.376770 0.399994
0.294220 0.452148 0.479980
0.343262 0.527496 0.559998
0.399994 0.597412 0.632233
0.480011 0.651093 0.681274
0.196136 0.301422 0.319977
0.245178 0.376770 0.399994
0.294220 0.452148 0.479980
0.294220 0.452148 0.479980
0.294220 0.452148 0.479980
0.343262 0.527496 0.559998
0.399994 0.597412 0.632233
0.480011 0.651093 0.681274
0.245178 0.376770 0.399994
0.294220 0.452148 0.479980
0.343262 0.527496 0.559998
0.343262 0.527496 0.559998
0.343262 0.527496 0.559998
0.343262 0.527496 0.559998
0.399994 0.597412 0.632233
0.480011 0.651093 0.681274
0.294220 0.452148 0.479980
0.343262 0.527496 0.559998
0.399994 0.597412 0.632233
0.399994 0.597412 0.632233
0.399994 0.597412 0.632233
0.399994 0.597412 0.632233
0.399994 0.597412 0.632233
0.480011 0.651093 0.681274
0.343262 0.527496 0.559998
0.399994 0.597412 0.632233
0.480011 0.651093 0.681274
0.480011 0.651093 0.681274
0.480011 0.651093 0.681274
0.480011 0.651093 0.681274
0.480011 0.651093 0.681274
0.480011 0.651093 0.681274
0.147125 0.226074 0.239990
0.147125 0.226074 0.239990
0.147125 0.226074 0.239990
0.147125 0.226074 0.239990
0.196136 0.301422 0.319977
0.245178 0.376770 0.399994
0.294220 0.452148 0.479980
0.343262 0.527496 0.559998
0.147125 0.226074 0.239990
0.196136 0.301422 0.319977
0.196136 0.301422 0.319977
0.196136 0.301422 0.319977
0.245178 0.376770 0.399994
0.294220 0.452148 0.479980
0.343262 0.527496 0.559998
0.399994 0.597412 0.632233
0.147125 0.226074 0.239990
0.196136 0.301422 0.319977
0.245178 0.376770 0.399994
0.245178 0.376770 0.399994
0.294220 0.452148 0.479980
0.343262 0.527496 0.559998
0.399994 0.597412 0.632233
0.480011 0.651093 0.681274
0.147125 0.226074 0.239990
0.196136 0.301422 0.319977
0.245178 0.376770 0.399994
0.294220 0.452148 0.479980
0.343262 0.527496 0.559998
0.399994 0.597412 0.632233
0.480011 0.651093 0.681274
0.559998 0.704803 0.730316
0.196136 0.301422 0.319977
0.245178 0.376770 0.399994
0.294220 0.452148 0.479980
0.343262 0.527496 0.559998
0.343262 0.527496 0.559998
0.399994 0.597412 0.632233
0.480011 0.651093 0.681274
0.559998 0.704803 0.730316
0.245178 0.376770 0.399994
0.294220 0.452148 0.479980
0.343262 0.527496 0.559998
0.399994 0.597412 0.632233
0.399994 0.597412 0.632233
0.399994 0.597412 0.632233
0.480011 0.651093 0.681274
0.559998 0.704803 0.730316
0.294220 0.452148 0.479980
0.343262 0.527496 0.559998
0.399994 0.597412 0.632233
0.480011 0.651093 0.681274
0.480011 0.651093 0.681274
0.480011 0.651093 0.681274
0.480011 0.651093 0.681274
0.559998 0.704803 0.730316
0.343262 0.527496 0.559998
0.399994 0.597412 0.632233
0.480011 0.651093 0.681274
0.559998 0.704803 0.730316
0.559998 0.704803 0.730316
0.559998 0.704803 0.730316
0.559998 0.704803 0.730316
0.559998 0.704803 0.730316
0.196136 0.301422 0.319977
0.196136 0.301422 0.319977
0.196136 0.301422 0.319977
0.196136 0.301422 0.319977
0.196136 0.301422 0.319977
0.245178 0.376770 0.399994
0.294220 0.452148 0.479980
0.343262 0.527496 0.559998
0.196136 0.301422 0.319977
0.245178 0.376770 0.399994
0.245178 0.376770 0.399994
0.245178 0.376770 0.399994
0.245178 0.376770 0.399994
0.294220 0.452148 0.479980
0.343262 0.527496 0.559998
0.399994 0.597412 0.632233
0.196136 0.301422 0.319977
0.245178 0.376770 0.399994
0.294220 0.452148 0.479980
0.294220 0.452148 0.479980
0.294220 0.452148 0.479980
0.343262 0.527496 0.559998
0.399994 0.597412 0.632233
0.480011 0.651093 0.681274
0.196136 0.301422 0.319977
0.245178 0.376770 0.399994
0.294220 0.452148 0.479980
0.343262 0.527496 0.559998
0.343262 0.527496 0.559998
0.399994 0.597412 0.632233
0.480011 0.651093 0.681274
0.559998 0.704803 0.730316
0.196136 0.301422 0.319977
0.245178 0.376770 0.399994
0.294220 0.452148 0.479980
0.343262 0.527496 0.559998
0.400024 0.597443 0.632263
0.480042 0.651123 0.681305
0.560028 0.704803 0.730347
0.640045 0.758484 0.779358
0.245178 0.376770 0.399994
0.294220 0.452148 0.479980
0.343262 0.527496 0.559998
0.399994 0.597412 0.632233
0.480042 0.651123 0.681305
0.480042 0.651123 0.681305
0.560028 0.704803 0.730347
0.640045 0.758484 0.779358
0.294220 0.452148 0.479980
0.343262 0.527496 0.559998
0.399994 0.597412 0.632233
0.480011 0.651093 0.681274
0.560028 0.704803 0.730347
0.560028 0.704803 0.730347
0.560028 0.704803 0.730347
0.640045 0.758484 0.779358
0.343262 0.527496 0.559998
0.399994 0.597412 0.632233
0.480011 0.651093 0.681274
0.559998 0.704803 0.730316
0.640045 0.758484 0.779358
0.640045 0.758484 0.779358
0.640045 0.758484 0.779358
0.640045 0.758484 0.779358
0.245178 0.376770 0.399994
0.245178 0.376770 0.399994
0.245178 0.376770 0.399994
0.245178 0.376770 0.399994
0.245178 0.376770 0.399994
0.245178 0.376770 0.399994
0.294220 0.452148 0.479980
0.343262 0.527496 0.559998
0.245178 0.376770 0.399994
0.294220 0.452148 0.479980
0.294220 0.452148 0.479980
0.294220 0.452148 0.479980
0.294220 0.452148 0.479980
0.294220 0.452148 0.479980
0.343262 0.527496 0.559998
0.399994 0.597412 0.632233
0.245178 0.376770 0.399994
0.294220 0.452148 0.479980
0.343262 0.527496 0.559998
0.343262 0.527496 0.559998
0.343262 0.527496 0.559998
0.343262 0.527496 0.559998
0.399994 0.597412 0.632233
0.480011 0.651093 0.681274
0.245178 0.376770 0.399994
0.294220 0.452148 0.479980
0.343262 0.527496 0.559998
0.399994 0.597412 0.632233
0.399994 0.597412 0.632233
0.399994 0.597412 0.632233
0.480011 0.651093 0.681274
0.559998 0.704803 0.730316
0.245178 0.376770 0.399994
0.294220 0.452148 0.479980
0.343262 0.527496 0.559998
0.399994 0.597412 0.632233
0.480042 0.651123 0.681305
0.480042 0.651123 0.681305
0.560028 0.704803 0.730347
0.640045 0.758484 0.779358
0.245178 0.376770 0.399994
0.294220 0.452148 0.479980
0.343262 0.527496 0.559998
0.399994 0.597412 0.632233
0.480042 0.651123 0.681305
0.560028 0.704803 0.730347
0.640045 0.758484 0.779358
0.720032 0.812164 0.828400
0.294220 0.452148 0.479980
0.343262 0.527496 0.559998
0.399994 0.597412 0.632233
0.480011 0.651093 0.681274
0.560028 0.704803 0.730347
0.640045 0.758484 0.779358
0.640045 0.758484 0.779358
0.720032 0.812164 0.828400
0.343262 0.527496 0.559998
0.399994 0.597412 0.632233
0.480011 0.651093 0.681274
0.559998 0.704803 0.730316
0.640045 0.758484 0.779358
0.720032 0.812164 0.828400
0.720032 0.812164 0.828400
0.720032 0.812164 0.828400
0.294220 0.452148 0.479980
0.294220 0.452148 0.479980
0.294220 0.452148 0.479980
0.294220 0.452148 0.479980
0.294220 0.452148 0.479980
0.294220 0.452148 0.479980
0.294220 0.452148 0.479980
0.343262 0.527496 0.559998
0.294220 0.452148 0.479980
0.343262 0.527496 0.559998
0.343262 0.527496 0.559998
0.343262 0.527496 0.559998
0.343262 0.527496 0.559998
0.343262 0.527496 0.559998
0.343262 0.527496 0.559998
0.399994 0.597412 0.632233
0.294220 0.452148 0.479980
0.343262 0.527496 0.559998
0.399994 0.597412 0.632233
0.399994 0.597412 0.632233
0.399994 0.597412 0.632233
0.399994 0.597412 0.632233
0.399994 0.597412 0.632233
0.480011 0.651093 0.681274
0.294220 0.452148 0.479980
0.343262 0.527496 0.559998
0.399994 0.597412 0.632233
0.480011 0.651093 0.681274
0.480011 0.651093 0.681274
0.480011 0.651093 0.681274
0.480011 0.651093 0.681274
0.559998 0.704803 0.730316
0.294220 0.452148 0.479980
0.343262 0.527496 0.559998
0.399994 0.597412 0.632233
0.480011 0.651093 0.681274
0.560028 0.704803 0.730347
0.560028 0.704803 0.730347
0.560028 0.704803 0.730347
0.640045 0.758484 0.779358
0.294220 0.452148 0.479980
0.343262 0.527496 0.559998
0.399994 0.597412 0.632233
0.480011 0.651093 0.681274
0.560028 0.704803 0.730347
0.640045 0.758484 0.779358
0.640045 0.758484 0.779358
0.720032 0.812164 0.828400
0.294220 0.452148 0.479980
0.343262 0.527496 0.559998
0.399994 0.597412 0.632233
0.480011 0.651093 0.681274
0.560028 0.704803 0.730347
0.640045 0.758484 0.779358
0.720032 0.812164 0.828400
0.800018 0.865814 0.877411
0.343262 0.527496 0.559998
0.399994 0.597412 0.632233
0.480011 0.651093 0.681274
0.559998 0.704803 0.730316
0.640045 0.758484 0.779358
0.720032 0.812164 0.828400
0.800018 0.865814 0.877411
0.800018 0.865814 0.877411
0.343262 0.527496 0.559998
0.343262 0.527496 0.559998
0.343262 0.527496 0.559998
0.343262 0.527496 0.559998
0.343262 0.527496 0.559998
0.343262 0.527496 0.559998
0.343262 0.527496 0.559998
0.343262 0.527496 0.559998
0.343262 0.527496 0.559998
0.399994 0.597412 0.632233
0.399994 0.597412 0.632233
0.399994 0.597412 0.632233
0.399994 0.597412 0.632233
0.399994 0.597412 0.632233
0.399994 0.597412 0.632233
0.399994 0.597412 0.632233
0.343262 0.527496 0.559998
0.399994 0.597412 0.632233
0.480011 0.651093 0.681274
0.480011 0.651093 0.681274
0.480011 0.651093 0.681274
0.480011 0.651093 0.681274
0.480011 0.651093 0.681274
0.480011 0.651093 0.681274
0.343262 0.527496 0.559998
0.399994 0.597412 0.632233
0.480011 0.651093 0.681274
0.559998 0.704803 0.730316
0.559998 0.704803 0.730316
0.559998 0.704803 0.730316
0.559998 0.704803 0.730316
0.559998 0.704803 0.730316
0.343262 0.527496 0.559998
0.399994 0.597412 0.632233
0.480011 0.651093 0.681274
0.559998 0.704803 0.730316
0.640045 0.758484 0.779358
0.640045 0.758484 0.779358
0.640045 0.758484 0.779358
0.640045 0.758484 0.779358
0.343262 0.527496 0.559998
0.399994 0.597412 0.632233
0.480011 0.651093 0.681274
0.559998 0.704803 0.730316
0.640045 0.758484 0.779358
0.720032 0.812164 0.828400
0.720032 0.812164 0.828400
0.720032 0.812164 0.828400
0.343262 0.527496 0.559998
0.399994 0.597412 0.632233
0.480011 0.651093 0.681274
0.559998 0.704803 0.730316
0.640045 0.758484 0.779358
0.720032 0.812164 0.828400
0.800018 0.865814 0.877411
0.800018 0.865814 0.877411
0.343262 0.527496 0.559998
0.399994 0.597412 0.632233
0.480011 0.651093 0.681274
0.559998 0.704803 0.730316
0.640045 0.758484 0.779358
0.720032 0.812164 0.828400
0.800018 0.865814 0.877411
0.880005 0.919495 0.926453
