Assets/LUTs/coolLUT.CUBE
#Created by: Adobe Photoshop Export Color Lookup Plugin
TITLE "coolLUT"
#LUT size
LUT_3D_SIZE 32
#data domain
DOMAIN_MIN 0.0 0.0 0.0
DOMAIN_MAX 1.0 1.0 1.0
#LUT data points
0.000000 0.000000 0.000000
0.012268 0.018829 0.019989
0.024536 0.037659 0.039978
0.036774 0.056488 0.059967
0.049072 0.075378 0.080017
0.061310 0.094177 0.099976
0.073547 0.113037 0.119995
0.085815 0.131866 0.139984
0.098083 0.150726 0.160004
0.110321 0.169525 0.179962
0.122589 0.188385 0.199982
0.134857 0.207214 0.219971
0.147125 0.226074 0.239990
0.159363 0.244904 0.259979
0.171631 0.263763 0.279999
0.183868 0.282593 0.299988
0.196136 0.301422 0.319977
0.208405 0.320282 0.339996
0.220673 0.339111 0.359985
0.232941 0.357971 0.380005
0.245178 0.376770 0.399994
0.257446 0.395630 0.420013
0.269684 0.414459 0.440002
0.281952 0.433319 0.459991
0.294220 0.452148 0.479980
0.306488 0.471008 0.500000
0.318726 0.489807 0.519989
0.330994 0.508667 0.540009
0.343262 0.527496 0.559998
0.355499 0.546356 0.580017
0.367737 0.565155 0.599976
0.380005 0.584015 0.619995
0.012268 0.018829 0.019989
0.012268 0.018829 0.019989
0.024536 0.037659 0.039978
0.036774 0.056488 0.059967
0.049072 0.075378 0.080017
0.061310 0.094177 0.099976
0.073547 0.113037 0.119995
0.085815 0.131866 0.139984
0.098083 0.150726 0.160004
0.110321 0.169525 0.179962
0.122589 0.188385 0.199982
0.134857 0.207214 0.219971
0.147125 0.226074 0.239990
0.159363 0.244904 0.259979
0.171631 0.263763 0.279999
0.183868 0.282593 0.299988
0.196136 0.301422 0.319977
0.208405 0.320282 0.339996
0.220673 0.339111 0.359985
0.232941 0.357971 0.380005
0.245178 0.376770 0.399994
0.257446 0.395630 0.420013
0.269684 0.414459 0.440002
0.281952 0.433319 0.459991
0.294220 0.452148 0.479980
0.306488 0.471008 0.500000
0.318726 0.489807 0.519989
0.330994 0.508667 0.540009
0.343262 0.527496 0.559998
0.355499 0.546356 0.580017
0.367737 0.565155 0.599976
0.380005 0.584015 0.619995
0.024536 0.037659 0.039978
0.024536 0.037659 0.039978
0.024536 0.037659 0.039978
0.036774 0.056488 0.059967
0.049072 0.075378 0.080017
0.061310 0.094177 0.099976
0.073547 0.113037 0.119995
0.085815 0.131866 0.139984
0.098083 0.150726 0.160004
0.110321 0.169525 0.179962
0.122589 0.188385 0.199982
0.134857 0.207214 0.219971
0.147125 0.226074 0.239990
0.159363 0.244904 0.259979
0.171631 0.263763 0.279999
0.183868 0.282593 0.299988
0.196136 0.301422 0.319977
0.208405 0.320282 0.339996
0.220673 0.339111 0.359985
0.232941 0.357971 0.380005
0.245178 0.376770 0.399994
0.257446 0.395630 0.420013
0.269684 0.414459 0.440002
0.281952 0.433319 0.459991
0.294220 0.452148 0.479980
0.306488 0.471008 0.500000
0.318726 0.489807 0.519989
0.330994 0.508667 0.540009
0.343262 0.527496 0.559998
0.355499 0.546356 0.580017
0.367737 0.565155 0.599976
0.380005 0.584015 0.619995
0.036774 0.056488 0.059967
0.036774 0.056488 0.059967
0.036774 0.056488 0.059967
0.036774 0.056488 0.059967
0.049072 0.075378 0.080017
0.061310 0.094177 0.099976
0.073547 0.113037 0.119995
0.085815 0.131866 0.139984
0.098083 0.150726 0.160004
0.110321 0.169525 0.179962
0.122589 0.188385 0.199982
0.134857 0.207214 0.219971
0.147125 0.226074 0.239990
0.159363 0.244904 0.259979
0.171631 0.263763 0.279999
0.183868 0.282593 0.299988
0.196136 0.301422 0.319977
0.208405 0.320282 0.339996
0.220673 0.339111 0.359985
0.232941 0.357971 0.380005
0.245178 0.376770 0.399994
0.257446 0.395630 0.420013
0.269684 0.414459 0.440002
0.281952 0.433319 0.459991
0.294220 0.452148 0.479980
0.306488 0.471008 0.500000
0.318726 0.489807 0.519989
0.330994 0.508667 0.540009
0.343262 0.527496 0.559998
0.355499 0.546356 0.580017
0.367737 0.565155 0.599976
0.380005 0.584015 0.619995
0.049072 0.075378 0.080017
0.049072 0.075378 0.080017
0.049072 0.075378 0.080017
0.049072 0.075378 0.080017
0.049072 0.075378 0.080017
0.061310 0.094177 0.099976
0.073547 0.113037 0.119995
0.085815 0.131866 0.139984
0.098083 0.150726 0.160004
0.110321 0.169525 0.179962
0.122589 0.188385 0.199982
0.134857 0.207214 0.219971
0.147125 0.226074 0.239990
0.159363 0.244904 0.259979
0.171631 0.263763 0.279999
0.183868 0.282593 0.299988
0.196136 0.301422 0.319977
0.208405 0.320282 0.339996
0.220673 0.339111 0.359985
0.232941 0.357971 0.380005
0.245178 0.376770 0.399994
0.257446 0.395630 0.420013
0.269684 0.414459 0.440002
0.281952 0.433319 0.459991
0.294220 0.452148 0.479980
0.306488 0.471008 0.500000
0.318726 0.489807 0.519989
0.330994 0.508667 0.540009
0.343262 0.527496 0.559998
0.355499 0.546356 0.580017
0.367737 0.565155 0.599976
0.380005 0.584015 0.619995
0.061310 0.094177 0.099976
0.061310 0.094177 0.099976
0.061310 0.094177 0.099976
0.061310 0.094177 0.099976
0.061310 0.094177 0.099976
0.061310 0.094177 0.099976
0.073547 0.113037 0.119995
0.085815 0.131866 0.139984
0.098083 0.150726 0.160004
0.110321 0.169525 0.179962
0.122589 0.188385 0.199982
0.134857 0.207214 0.219971
0.147125 0.226074 0.239990
0.159363 0.244904 0.259979
0.171631 0.263763 0.279999
0.183868 0.282593 0.299988
0.196136 0.301422 0.319977
0.208405 0.320282 0.339996
0.220673 0.339111 0.359985
0.232941 0.357971 0.380005
0.245178 0.376770 0.399994
0.257446 0.395630 0.420013
0.269684 0.414459 0.440002
0.281952 0.433319 0.459991
0.294220 0.452148 0.479980
0.306488 0.471008 0.500000
0.318726 0.489807 0.519989
0.330994 0.508667 0.540009
0.343262 0.527496 0.559998
0.355499 0.546356 0.580017
0.367737 0.565155 0.599976
0.380005 0.584015 0.619995
0.073547 0.113037 0.119995
0.073547 0.113037 0.119995
0.073547 0.113037 0.119995
0.073547 0.113037 0.119995
0.073547 0.113037 0.119995
0.073547 0.113037 0.119995
0.073547 0.113037 0.119995
0.085815 0.131866 0.139984
0.098083 0.150726 0.160004
0.110321 0.169525 0.179962
0.122589 0.188385 0.199982
0.134857 0.207214 0.219971
0.147125 0.226074 0.239990
0.159363 0.244904 0.259979
0.171631 0.263763 0.279999
0.183868 0.282593 0.299988
0.196136 0.301422 0.319977
0.208405 0.320282 0.339996
0.220673 0.339111 0.359985
0.232941 0.357971 0.380005
0.245178 0.376770 0.399994
0.257446 0.395630 0.420013
0.269684 0.414459 0.440002
0.281952 0.433319 0.459991
0.294220 0.452148 0.479980
0.306488 0.471008 0.500000
0.318726 0.489807 0.519989
0.330994 0.508667 0.540009
0.343262 0.527496 0.559998
0.355499 0.546356 0.580017
0.367737 0.565155 0.599976
0.380005 0.584015 0.619995
0.085815 0.131866 0.139984
0.085815 0.131866 0.139984
0.085815 0.131866 0.139984
0.085815 0.131866 0.139984
0.085815 0.131866 0.139984
0.085815 0.131866 0.139984
0.085815 0.131866 0.139984
0.085815 0.131866 0.139984
0.098083 0.150726 0.160004
0.110321 0.169525 0.179962
0.122589 0.188385 0.199982
0.134857 0.207214 0.219971
0.147125 0.226074 0.239990
0.159363 0.244904 0.259979
0.171631 0.263763 0.279999
0.183868 0.282593 0.299988
0.196136 0.301422 0.319977
0.208405 0.320282 0.339996
0.220673 0.339111 0.359985
0.232941 0.357971 0.380005
0.245178 0.376770 0.399994
0.257446 0.395630 0.420013
0.269684 0.414459 0.440002
0.281952 0.433319 0.459991
0.294220 0.452148 0.479980
0.306488 0.471008 0.500000
0.318726 0.489807 0.519989
0.330994 0.508667 0.540009
0.343262 0.527496 0.559998
0.355499 0.546356 0.580017
0.367737 0.565155 0.599976
0.380005 0.584015 0.619995
0.098083 0.150726 0.160004
0.098083 0.150726 0.160004
0.098083 0.150726 0.160004
0.098083 0.150726 0.160004
0.098083 0.150726 0.160004
0.098083 0.150726 0.160004
0.098083 0.150726 0.160004
0.098083 0.150726 0.160004
0.098083 0.150726 0.160004
0.110321 0.169525 0.179962
0.122589 0.188385 0.199982
0.134857 0.207214 0.219971
0.147125 0.226074 0.239990
0.159363 0.244904 0.259979
0.171631 0.263763 0.279999
0.183868 0.282593 0.299988
0.196136 0.301422 0.319977
0.208405 0.320282 0.339996
0.220673 0.339111 0.359985
0.232941 0.357971 0.380005
0.245178 0.376770 0.399994
0.257446 0.395630 0.420013
0.269684 0.414459 0.440002
0.281952 0.433319 0.459991
0.294220 0.452148 0.479980
0.306488 0.471008 0.500000
0.318726 0.489807 0.519989
0.330994 0.508667 0.540009
0.343262 0.527496 0.559998
0.355499 0.546356 0.580017
0.367737 0.565155 0.599976
0.380005 0.584015 0.619995
0.110321 0.169525 0.179962
0.110321 0.169525 0.179962
0.110321 0.169525 0.179962
0.110321 0.169525 0.179962
0.110321 0.169525 0.179962
0.110321 0.169525 0.179962
0.110321 0.169525 0.179962
0.110321 0.169525 0.179962
0.110321 0.169525 0.179962
0.110321 0.169525 0.179962
0.122589 0.188385 0.199982
0.134857 0.207214 0.219971
0.147125 0.226074 0.239990
0.159363 0.244904 0.259979
0.171631 0.263763 0.279999
0.183868 0.282593 0.299988
0.196136 0.301422 0.319977
0.208405 0.320282 0.339996
0.220673 0.339111 0.359985
0.232941 0.357971 0.380005
0.245178 0.376770 0.399994
0.257446 0.395630 0.420013
0.269684 0.414459 0.440002
0.281952 0.433319 0.459991
0.294220 0.452148 0.479980
0.306488 0.471008 0.500000
0.318726 0.489807 0.519989
0.330994 0.508667 0.540009
0.343262 0.527496 0.559998
0.355499 0.546356 0.580017
0.367737 0.565155 0.599976
0.380005 0.584015 0.619995
0.122589 0.188385 0.199982
0.122589 0.188385 0.199982
0.122589 0.188385 0.199982
0.122589 0.188385 0.199982
0.122589 0.188385 0.199982
0.122589 0.188385 0.199982
0.122589 0.188385 0.199982
0.122589 0.188385 0.199982
0.122589 0.188385 0.199982
0.122589 0.188385 0.199982
0.122589 0.188385 0.199982
0.134857 0.207214 0.219971
0.147125 0.226074 0.239990
0.159363 0.244904 0.259979
0.171631 0.263763 0.279999
0.183868 0.282593 0.299988
0.196136 0.301422 0.319977
0.208405 0.320282 0.339996
0.220673 0.339111 0.359985
0.232941 0.357971 0.380005
0.245178 0.376770 0.399994
0.257446 0.395630 0.420013
0.269684 0.414459 0.440002
0.281952 0.433319 0.459991
0.294220 0.452148 0.479980
0.306488 0.471008 0.500000
0.318726 0.489807 0.519989
0.330994 0.508667 0.540009
0.343262 0.527496 0.559998
0.355499 0.546356 0.580017
0.367737 0.565155 0.599976
0.380005 0.584015 0.619995
0.134857 0.207214 0.219971
0.134857 0.207214 0.219971
0.134857 0.207214 0.219971
0.134857 0.207214 0.219971
0.134857 0.207214 0.219971
0.134857 0.207214 0.219971
0.134857 0.207214 0.219971
0.134857 0.207214 0.219971
0.134857 0.207214 0.219971
0.134857 0.207214 0.219971
0.134857 0.207214 0.219971
0.134857 0.207214 0.219971
0.147125 0.226074 0.239990
0.159363 0.244904 0.259979
0.171631 0.263763 0.279999
0.183868 0.282593 0.299988
0.196136 0.301422 0.319977
0.208405 0.320282 0.339996
0.220673 0.339111 0.359985
0.232941 0.357971 0.380005
0.245178 0.376770 0.399994
0.257446 0.395630 0.420013
0.269684 0.414459 0.440002
0.281952 0.433319 0.459991
0.294220 0.452148 0.479980
0.306488 0.471008 0.500000
0.318726 0.489807 0.519989
0.330994 0.508667 0.540009
0.343262 0.527496 0.559998
0.355499 0.546356 0.580017
0.367737 0.565155 0.599976
0.380005 0.584015 0.619995
0.147125 0.226074 0.239990
0.147125 0.226074 0.239990
0.147125 0.226074 0.239990
0.147125 0.226074 0.239990
0.147125 0.226074 0.239990
0.147125 0.226074 0.239990
0.147125 0.226074 0.239990
0.147125 0.226074 0.239990
0.147125 0.226074 0.239990
0.147125 0.226074 0.239990
0.147125 0.226074 0.239990
0.147125 0.226074 0.239990
0.147125 0.226074 0.239990
0.159363 0.244904 0.259979
0.171631 0.263763 0.279999
0.183868 0.282593 0.299988
0.196136 0.301422 0.319977
0.208405 0.320282 0.339996
0.220673 0.339111 0.359985
0.232941 0.357971 0.380005
0.245178 0.376770 0.399994
0.257446 0.395630 0.420013
0.269684 0.414459 0.440002
0.281952 0.433319 0.459991
0.294220 0.452148 0.479980
0.306488 0.471008 0.500000
0.318726 0.489807 0.519989
0.330994 0.508667 0.540009
0.343262 0.527496 0.559998
0.355499 0.546356 0.580017
0.367737 0.565155 0.599976
0.380005 0.584015 0.619995
0.159363 0.244904 0.259979
0.159363 0.244904 0.259979
0.159363 0.244904 0.259979
0.159363 0.244904 0.259979
0.159363 0.244904 0.259979
0.159363 0.244904 0.259979
0.159363 0.244904 0.259979
0.159363 0.244904 0.259979
0.159363 0.244904 0.259979
0.159363 0.244904 0.259979
0.159363 0.244904 0.259979
0.159363 0.244904 0.259979
0.159363 0.244904 0.259979
0.159363 0.244904 0.259979
0.171631 0.263763 0.279999
0.183868 0.282593 0.299988
0.196136 0.301422 0.319977
0.208405 0.320282 0.339996
0.220673 0.339111 0.359985
0.232941 0.357971 0.380005
0.245178 0.376770 0.399994
0.257446 0.395630 0.420013
0.269684 0.414459 0.440002
0.281952 0.433319 0.459991
0.294220 0.452148 0.479980
0.306488 0.471008 0.500000
0.318726 0.489807 0.519989
0.330994 0.508667 0.540009
0.343262 0.527496 0.559998
0.355499 0.546356 0.580017
0.367737 0.565155 0.599976
0.380005 0.584015 0.619995
0.171631 0.263763 0.279999
0.171631 0.263763 0.279999
0.171631 0.263763 0.279999
0.171631 0.263763 0.279999
0.171631 0.263763 0.279999
0.171631 0.263763 0.279999
0.171631 0.263763 0.279999
0.171631 0.263763 0.279999
0.171631 0.263763 0.279999
0.171631 0.263763 0.279999
0.171631 0.263763 0.279999
0.171631 0.263763 0.279999
0.171631 0.263763 0.279999
0.171631 0.263763 0.279999
0.171631 0.263763 0.279999
0.183868 0.282593 0.299988
0.196136 0.301422 0.319977
0.208405 0.320282 0.339996
0.220673 0.339111 0.359985
0.232941 0.357971 0.380005
0.245178 0.376770 0.399994
0.257446 0.395630 0.420013
0.269684 0.414459 0.440002
0.281952 0.433319 0.459991
0.294220 0.452148 0.479980
0.306488 0.471008 0.500000
0.318726 0.489807 0.519989
0.330994 0.508667 0.540009
0.343262 0.527496 0.559998
0.355499 0.546356 0.580017
0.367737 0.565155 0.599976
0.380005 0.584015 0.619995
0.183868 0.282593 0.299988
0.183868 0.282593 0.299988
0.183868 0.282593 0.299988
0.183868 0.282593 0.299988
0.183868 0.282593 0.299988
0.183868 0.282593 0.299988
0.183868 0.282593 0.299988
0.183868 0.282593 0.299988
0.183868 0.282593 0.299988
0.183868 0.282593 0.299988
0.183868 0.282593 0.299988
0.183868 0.282593 0.299988
0.183868 0.282593 0.299988
0.183868 0.282593 0.299988
0.183868 0.282593 0.299988
0.183868 0.282593 0.299988
0.196136 0.301422 0.319977
0.208405 0.320282 0.339996
0.220673 0.339111 0.359985
0.232941 0.357971 0.380005
0.245178 0.376770 0.399994
0.257446 0.395630 0.420013
0.269684 0.414459 0.440002
0.281952 0.433319 0.459991
0.294220 0.452148 0.479980
0.306488 0.471008 0.500000
0.318726 0.489807 0.519989
0.330994 0.508667 0.540009
0.343262 0.527496 0.559998
0.355499 0.546356 0.580017
0.367737 0.565155 0.599976
0.380005 0.584015 0.619995
0.196136 0.301422 0.319977
0.196136 0.301422 0.319977
0.196136 0.301422 0.319977
0.196136 0.301422 0.319977
0.196136 0.301422 0.319977
0.196136 0.301422 0.319977
0.196136 0.301422 0.319977
0.196136 0.301422 0.319977
0.196136 0.301422 0.319977
0.196136 0.301422 0.319977
0.196136 0.301422 0.319977
0.196136 0.301422 0.319977
0.196136 0.301422 0.319977
0.196136 0.301422 0.319977
0.196136 0.301422 0.319977
0.196136 0.301422 0.319977
0.196136 0.301422 0.319977
0.208405 0.320282 0.339996
0.220673 0.339111 0.359985
0.232941 0.357971 0.380005
0.245178 0.376770 0.399994
0.257446 0.395630 0.420013
0.269684 0.414459 0.440002
0.281952 0.433319 0.459991
0.294220 0.452148 0.479980
0.306488 0.471008 0.500000
0.318726 0.489807 0.519989
0.330994 0.508667 0.540009
0.343262 0.527496 0.559998
0.355499 0.546356 0.580017
0.367737 0.565155 0.599976
0.380005 0.584015 0.619995
0.208405 0.320282 0.339996
0.208405 0.320282 0.339996
0.208405 0.320282 0.339996
0.208405 0.320282 0.339996
0.208405 0.320282 0.339996
0.208405 0.320282 0.339996
0.208405 0.320282 0.339996
0.208405 0.320282 0.339996
0.208405 0.320282 0.339996
0.208405 0.320282 0.339996
0.208405 0.320282 0.339996
0.208405 0.320282 0.339996
0.208405 0.320282 0.339996
0.208405 0.320282 0.339996
0.208405 0.320282 0.339996
0.208405 0.320282 0.339996
0.208405 0.320282 0.339996
0.208405 0.320282 0.339996
0.220673 0.339111 0.359985
0.232941 0.357971 0.380005
0.245178 0.376770 0.399994
0.257446 0.395630 0.420013
0.269684 0.414459 0.440002
0.281952 0.433319 0.459991
0.294220 0.452148 0.479980
0.306488 0.471008 0.500000
0.318726 0.489807 0.519989
0.330994 0.508667 0.540009
0.343262 0.527496 0.559998
0.355499 0.546356 0.580017
0.367737 0.565155 0.599976
0.380005 0.584015 0.619995
0.220673 0.339111 0.359985
0.220673 0.339111 0.359985
0.220673 0.339111 0.359985
0.220673 0.339111 0.359985
0.220673 0.339111 0.359985
0.220673 0.339111 0.359985
0.220673 0.339111 0.359985
0.220673 0.339111 0.359985
0.220673 0.339111 0.359985
0.220673 0.339111 0.359985
0.220673 0.339111 0.359985
0.220673 0.339111 0.359985
0.220673 0.339111 0.359985
0.220673 0.339111 0.359985
0.220673 0.339111 0.359985
0.220673 0.339111 0.359985
0.220673 0.339111 0.359985
0.220673 0.339111 0.359985
0.220673 0.339111 0.359985
0.232941 0.357971 0.380005
0.245178 0.376770 0.399994
0.257446 0.395630 0.420013
0.269684 0.414459 0.440002
0.281952 0.433319 0.459991
0.294220 0.452148 0.479980
0.306488 0.471008 0.500000
0.318726 0.489807 0.519989
0.330994 0.508667 0.540009
0.343262 0.527496 0.559998
0.355499 0.546356 0.580017
0.367737 0.565155 0.599976
0.380005 0.584015 0.619995
0.232941 0.357971 0.380005
0.232941 0.357971 0.380005
0.232941 0.357971 0.380005
0.232941 0.357971 0.380005
0.232941 0.357971 0.380005
0.232941 0.357971 0.380005
0.232941 0.357971 0.380005
0.232941 0.357971 0.380005
0.232941 0.357971 0.380005
0.232941 0.357971 0.380005
0.232941 0.357971 0.380005
0.232941 0.357971 0.380005
0.232941 0.357971 0.380005
0.232941 0.357971 0.380005
0.232941 0.357971 0.380005
0.232941 0.357971 0.380005
0.232941 0.357971 0.380005
0.232941 0.357971 0.380005
0.232941 0.357971 0.380005
0.232941 0.357971 0.380005
0.245178 0.376770 0.399994
0.257446 0.395630 0.420013
0.269684 0.414459 0.440002
0.281952 0.433319 0.459991
0.294220 0.452148 0.479980
0.306488 0.471008 0.500000
0.318726 0.489807 0.519989
0.330994 0.508667 0.540009
0.343262 0.527496 0.559998
0.355499 0.546356 0.580017
0.367737 0.565155 0.599976
0.380005 0.584015 0.619995
0.245178 0.376770 0.399994
0.245178 0.376770 0.399994
0.245178 0.376770 0.399994
0.245178 0.376770 0.399994
0.245178 0.376770 0.399994
0.245178 0.376770 0.399994
0.245178 0.376770 0.399994
0.245178 0.376770 0.399994
0.245178 0.376770 0.399994
0.245178 0.376770 0.399994
0.245178 0.376770 0.399994
0.245178 0.376770 0.399994
0.245178 0.376770 0.399994
0.245178 0.376770 0.399994
0.245178 0.376770 0.399994
0.245178 0.376770 0.399994
0.245178 0.376770 0.399994
0.245178 0.376770 0.399994
0.245178 0.376770 0.399994
0.245178 0.376770 0.399994
0.245178 0.376770 0.399994
0.257446 0.395630 0.420013
0.269684 0.414459 0.440002
0.281952 0.433319 0.459991
0.294220 0.452148 0.479980
0.306488 0.471008 0.500000
0.318726 0.489807 0.519989
0.330994 0.508667 0.540009
0.343262 0.527496 0.559998
0.355499 0.546356 0.580017
0.367737 0.565155 0.599976
0.380005 0.584015 0.619995
0.257446 0.395630 0.420013
0.257446 0.395630 0.420013
0.257446 0.395630 0.420013
0.257446 0.395630 0.420013
0.257446 0.395630 0.420013
0.257446 0.395630 0.420013
0.257446 0.395630 0.420013
0.257446 0.395630 0.420013
0.257446 0.395630 0.420013
0.257446 0.395630 0.420013
0.257446 0.395630 0.420013
0.257446 0.395630 0.420013
0.257446 0.395630 0.420013
0.257446 0.395630 0.420013
0.257446 0.395630 0.420013
0.257446 0.395630 0.420013
0.257446 0.395630 0.420013
0.257446 0.395630 0.420013
0.257446 0.395630 0.420013
0.257446 0.395630 0.420013
0.257446 0.395630 0.420013
0.257446 0.395630 0.420013
0.269684 0.414459 0.440002
0.281952 0.433319 0.459991
0.294220 0.452148 0.479980
0.306488 0.471008 0.500000
0.318726 0.489807 0.519989
0.330994 0.508667 0.540009
0.343262 0.527496 0.559998
0.355499 0.546356 0.580017
0.367737 0.565155 0.599976
0.380005 0.584015 0.619995
0.269684 0.414459 0.440002
0.269684 0.414459 0.440002
0.269684 0.414459 0.440002
0.269684 0.414459 0.440002
0.269684 0.414459 0.440002
0.269684 0.414459 0.440002
0.269684 0.414459 0.440002
0.269684 0.414459 0.440002
0.269684 0.414459 0.440002
0.269684 0.414459 0.440002
0.269684 0.414459 0.440002
0.269684 0.414459 0.440002
0.269684 0.414459 0.440002
0.269684 0.414459 0.440002
0.269684 0.414459 0.440002
0.269684 0.414459 0.440002
0.269684 0.414459 0.440002
0.269684 0.414459 0.440002
0.269684 0.414459 0.440002
0.269684 0.414459 0.440002
0.269684 0.414459 0.440002
0.269684 0.414459 0.440002
0.269684 0.414459 0.440002
0.281952 0.433319 0.459991
0.294220 0.452148 0.479980
0.306488 0.471008 0.500000
0.318726 0.489807 0.519989
0.330994 0.508667 0.540009
0.343262 0.527496 0.559998
0.355499 0.546356 0.580017
0.367737 0.565155 0.599976
0.380005 0.584015 0.619995
0.281952 0.433319 0.459991
0.281952 0.433319 0.459991
0.281952 0.433319 0.459991
0.281952 0.433319 0.459991
0.281952 0.433319 0.459991
0.281952 0.433319 0.459991
0.281952 0.433319 0.459991
0.281952 0.433319 0.459991
0.281952 0.433319 0.459991
0.281952 0.433319 0.459991
0.281952 0.433319 0.459991
0.281952 0.433319 0.459991
0.281952 0.433319 0.459991
0.281952 0.433319 0.459991
0.281952 0.433319 0.459991
0.281952 0.433319 0.459991
0.281952 0.433319 0.459991
0.281952 0.433319 0.459991
0.281952 0.433319 0.459991
0.281952 0.433319 0.459991
0.281952 0.433319 0.459991
0.281952 0.433319 0.459991
0.281952 0.433319 0.459991
0.281952 0.433319 0.459991
0.294220 0.452148 0.479980
0.306488 0.471008 0.500000
0.318726 0.489807 0.519989
0.330994 0.508667 0.540009
0.343262 0.527496 0.559998
0.355499 0.546356 0.580017
0.367737 0.565155 0.599976
0.380005 0.584015 0.619995
0.294220 0.452148 0.479980
0.294220 0.452148 0.479980
0.294220 0.452148 0.479980
0.294220 0.452148 0.479980
0.294220 0.452148 0.479980
0.294220 0.452148 0.479980
0.294220 0.452148 0.479980
0.294220 0.452148 0.479980
0.294220 0.452148 0.479980
0.294220 0.452148 0.479980
0.294220 0.452148 0.479980
0.294220 0.452148 0.479980
0.294220 0.452148 0.479980
0.294220 0.452148 0.479980
0.294220 0.452148 0.479980
0.294220 0.452148 0.479980
0.294220 0.452148 0.479980
0.294220 0.452148 0.479980
0.294220 0.452148 0.479980
0.294220 0.452148 0.479980
0.294220 0.452148 0.479980
0.294220 0.452148 0.479980
0.294220 0.452148 0.479980
0.294220 0.452148 0.479980
0.294220 0.452148 0.479980
0.306488 0.471008 0.500000
0.318726 0.489807 0.519989
0.330994 0.508667 0.540009
0.343262 0.527496 0.559998
0.355499 0.546356 0.580017
0.367737 0.565155 0.599976
0.380005 0.584015 0.619995
0.306488 0.471008 0.500000
0.306488 0.471008 0.500000
0.306488 0.471008 0.500000
0.306488 0.471008 0.500000
0.306488 0.471008 0.500000
0.306488 0.471008 0.500000
0.306488 0.471008 0.500000
0.306488 0.471008 0.500000
0.306488 0.471008 0.500000
0.306488 0.471008 0.500000
0.306488 0.471008 0.500000
0.306488 0.471008 0.500000
0.306488 0.471008 0.500000
0.306488 0.471008 0.500000
0.306488 0.471008 0.500000
0.306488 0.471008 0.500000
0.306488 0.471008 0.500000
0.306488 0.471008 0.500000
0.306488 0.471008 0.500000
0.306488 0.471008 0.500000
0.306488 0.471008 0.500000
0.306488 0.471008 0.500000
0.306488 0.471008 0.500000
0.306488 0.471008 0.500000
0.306488 0.471008 0.500000
0.306488 0.471008 0.500000
0.318726 0.489807 0.519989
0.330994 0.508667 0.540009
0.343262 0.527496 0.559998
0.355499 0.546356 0.580017
0.367737 0.565155 0.599976
0.380005 0.584015 0.619995
0.318726 0.489807 0.519989
0.318726 0.489807 0.519989
0.318726 0.489807 0.519989
0.318726 0.489807 0.519989
0.318726 0.489807 0.519989
0.318726 0.489807 0.519989
0.318726 0.489807 0.519989
0.318726 0.489807 0.519989
0.318726 0.489807 0.519989
0.318726 0.489807 0.519989
0.318726 0.489807 0.519989
0.318726 0.489807 0.519989
0.318726 0.489807 0.519989
0.318726 0.489807 0.519989
0.318726 0.489807 0.519989
0.318726 0.489807 0.519989
0.318726 0.489807 0.519989
0.318726 0.489807 0.519989
0.318726 0.489807 0.519989
0.318726 0.489807 0.519989
0.318726 0.489807 0.519989
0.318726 0.489807 0.519989
0.318726 0.489807 0.519989
0.318726 0.489807 0.519989
0.318726 0.489807 0.519989
0.318726 0.489807 0.519989
0.318726 0.489807 0.519989
0.330994 0.508667 0.540009
0.343262 0.527496 0.559998
0.355499 0.546356 0.580017
0.367737 0.565155 0.599976
0.380005 0.584015 0.619995
0.330994 0.508667 0.540009
0.330994 0.508667 0.540009
0.330994 0.508667 0.540009
0.330994 0.508667 0.540009
0.330994 0.508667 0.540009
0.330994 0.508667 0.540009
0.330994 0.508667 0.540009
0.330994 0.508667 0.540009
0.330994 0.508667 0.540009
0.330994 0.508667 0.540009
0.330994 0.508667 0.540009
0.330994 0.508667 0.540009
0.330994 0.508667 0.540009
0.330994 0.508667 0.540009
0.330994 0.508667 0.540009
0.330994 0.508667 0.540009
0.330994 0.508667 0.540009
0.330994 0.508667 0.540009
