Assets/LUTs/coolLUT.CUBE
#Created by: Adobe Photoshop Export Color Lookup Plugin
TITLE "coolLUT"
#LUT size
LUT_3D_SIZE 5
#data domain
#LUT data points
DOMAIN_MIN 0.000000 0.000000 0.000000
DOMAIN_MAX 0.903226 0.903226 0.903226
0.000000 0.000000 0.000000
0.085815 0.131866 0.139984
0.171631 0.263763 0.279999
0.257446 0.395630 0.420013
0.343262 0.527496 0.559998
0.085815 0.131866 0.139984
0.085815 0.131866 0.139984
0.171631 0.263763 0.279999
0.257446 0.395630 0.420013
0.343262 0.527496 0.559998
0.171631 0.263763 0.279999
0.171631 0.263763 0.279999
0.171631 0.263763 0.279999
0.257446 0.395630 0.420013
0.343262 0.527496 0.559998
0.257446 0.395630 0.420013
0.257446 0.395630 0.420013
0.257446 0.395630 0.420013
0.257446 0.395630 0.420013
0.343262 0.527496 0.559998
0.343262 0.527496 0.559998
0.343262 0.527496 0.559998
0.343262 0.527496 0.559998
0.343262 0.527496 0.559998
0.343262 0.527496 0.559998
0.085815 0.131866 0.139984
0.085815 0.131866 0.139984
0.171631 0.263763 0.279999
0.257446 0.395630 0.420013
0.343262 0.527496 0.559998
0.085815 0.131866 0.139984
0.171631 0.263763 0.279999
0.257446 0.395599 0.419983
0.343262 0.527496 0.559998
0.460022 0.637695 0.669037
0.171631 0.263763 0.279999
0.257446 0.395599 0.419983
0.257446 0.395599 0.419983
0.343262 0.527496 0.559998
0.460022 0.637695 0.669037
0.257446 0.395630 0.420013
0.343262 0.527496 0.559998
0.343262 0.527496 0.559998
0.343262 0.527496 0.559998
0.460022 0.637695 0.669037
0.343262 0.527496 0.559998
0.460022 0.637695 0.669037
0.460022 0.637695 0.669037
0.460022 0.637695 0.669037
0.460022 0.637695 0.669037
0.171631 0.263763 0.279999
0.171631 0.263763 0.279999
0.171631 0.263763 0.279999
0.257446 0.395630 0.420013
0.343262 0.527496 0.559998
0.171631 0.263763 0.279999
0.257446 0.395599 0.419983
0.257446 0.395599 0.419983
0.343262 0.527496 0.559998
0.460022 0.637695 0.669037
0.171631 0.263763 0.279999
0.257446 0.395599 0.419983
0.343262 0.527496 0.559998
0.460022 0.637695 0.669037
0.599976 0.731598 0.754822
0.257446 0.395630 0.420013
0.343262 0.527496 0.559998
0.460022 0.637695 0.669037
0.460022 0.637695 0.669037
0.599976 0.731598 0.754822
0.343262 0.527496 0.559998
0.460022 0.637695 0.669037
0.599976 0.731598 0.754822
0.599976 0.731598 0.754822
0.599976 0.731598 0.754822
0.257446 0.395630 0.420013
0.257446 0.395630 0.420013
0.257446 0.395630 0.420013
0.257446 0.395630 0.420013
0.343262 0.527496 0.559998
0.257446 0.395630 0.420013
0.343262 0.527496 0.559998
0.343262 0.527496 0.559998
0.343262 0.527496 0.559998
0.460022 0.637695 0.669037
0.257446 0.395630 0.420013
0.343262 0.527496 0.559998
0.460022 0.637695 0.669037
0.460022 0.637695 0.669037
0.599976 0.731598 0.754822
0.257446 0.395630 0.420013
0.343262 0.527496 0.559998
0.460022 0.637695 0.669037
0.600037 0.731628 0.754852
0.739990 0.825562 0.840637
0.343262 0.527496 0.559998
0.460022 0.637695 0.669037
0.599976 0.731598 0.754822
0.739990 0.825562 0.840637
0.739990 0.825562 0.840637
0.343262 0.527496 0.559998
0.343262 0.527496 0.559998
0.343262 0.527496 0.559998
0.343262 0.527496 0.559998
0.343262 0.527496 0.559998
0.343262 0.527496 0.559998
0.460022 0.637695 0.669037
0.460022 0.637695 0.669037
0.460022 0.637695 0.669037
0.460022 0.637695 0.669037
0.343262 0.527496 0.559998
0.460022 0.637695 0.669037
0.599976 0.731598 0.754822
0.599976 0.731598 0.754822
0.599976 0.731598 0.754822
0.343262 0.527496 0.559998
0.460022 0.637695 0.669037
0.599976 0.731598 0.754822
0.739990 0.825562 0.840637
0.739990 0.825562 0.840637
0.343262 0.527496 0.559998
0.460022 0.637695 0.669037
0.599976 0.731598 0.754822
0.739990 0.825562 0.840637
0.880005 0.919495 0.926453
