Assets/LUTs/greyscale.3DL
#Created by: Adobe Photoshop Export Color Lookup Plugin
#Description: greyscale.png
0 33 66 99 132 165 198 231 264 297 330 363 396 429 462 495 528 561 594 627 660 693 726 759 792 825 858 891 924 957 990 1023
0 0 0
26 26 26
53 53 53
79 79 79
106 106 106
132 132 132
158 158 158
185 185 185
211 211 211
238 238 238
264 264 264
291 291 291
317 317 317
343 343 343
370 370 370
396 396 396
423 423 423
449 449 449
475 475 475
502 502 502
528 528 528
555 555 555
581 581 581
607 607 607
634 634 634
660 660 660
687 687 687
713 713 713
740 740 740
766 766 766
792 792 792
819 819 819
53 53 53
79 79 79
106 106 106
132 132 132
158 158 158
185 185 185
211 211 211
238 238 238
264 264 264
291 291 291
317 317 317
343 343 343
370 370 370
396 396 396
423 423 423
449 449 449
475 475 475
502 502 502
528 528 528
555 555 555
581 581 581
607 607 607
634 634 634
660 660 660
687 687 687
713 713 713
740 740 740
766 766 766
792 792 792
819 819 819
845 845 845
872 872 872
106 106 106
132 132 132
158 158 158
185 185 185
211 211 211
238 238 238
264 264 264
291 291 291
317 317 317
343 343 343
370 370 370
396 396 396
423 423 423
449 449 449
475 475 475
502 502 502
528 528 528
555 555 555
581 581 581
607 607 607
634 634 634
660 660 660
687 687 687
713 713 713
740 740 740
766 766 766
792 792 792
819 819 819
845 845 845
872 872 872
898 898 898
924 924 924
158 158 158
185 185 185
211 211 211
238 238 238
264 264 264
291 291 291
317 317 317
343 343 343
370 370 370
396 396 396
423 423 423
449 449 449
475 475 475
502 502 502
528 528 528
555 555 555
581 581 581
607 607 607
634 634 634
660 660 660
687 687 687
713 713 713
740 740 740
766 766 766
792 792 792
819 819 819
845 845 845
872 872 872
898 898 898
924 924 924
951 951 951
977 977 977
211 211 211
238 238 238
264 264 264
291 291 291
317 317 317
343 343 343
370 370 370
396 396 396
423 423 423
449 449 449
475 475 475
502 502 502
528 528 528
555 555 555
581 581 581
607 607 607
634 634 634
660 660 660
687 687 687
713 713 713
740 740 740
766 766 766
792 792 792
819 819 819
845 845 845
872 872 872
898 898 898
924 924 924
951 951 951
977 977 977
1004 1004 1004
1030 1030 1030
264 264 264
291 291 291
317 317 317
343 343 343
370 370 370
396 396 396
423 423 423
449 449 449
475 475 475
502 502 502
528 528 528
555 555 555
581 581 581
607 607 607
634 634 634
660 660 660
687 687 687
713 713 713
740 740 740
766 766 766
792 792 792
819 819 819
845 845 845
872 872 872
898 898 898
924 924 924
951 951 951
977 977 977
1004 1004 1004
1030 1030 1030
1056 1056 1056
1083 1083 1083
317 317 317
343 343 343
370 370 370
396 396 396
423 423 423
449 449 449
475 475 475
502 502 502
528 528 528
555 555 555
581 581 581
607 607 607
634 634 634
660 660 660
687 687 687
713 713 713
740 740 740
766 766 766
792 792 792
819 819 819
845 845 845
872 872 872
898 898 898
924 924 924
951 951 951
977 977 977
1004 1004 1004
1030 1030 1030
1056 1056 1056
1083 1083 1083
1109 1109 1109
1136 1136 1136
370 370 370
396 396 396
423 423 423
449 449 449
475 475 475
502 502 502
528 528 528
555 555 555
581 581 581
607 607 607
634 634 634
660 660 660
687 687 687
713 713 713
740 740 740
766 766 766
792 792 792
819 819 819
845 845 845
872 872 872
898 898 898
924 924 924
951 951 951
977 977 977
1004 1004 1004
1030 1030 1030
1056 1056 1056
1083 1083 1083
1109 1109 1109
1136 1136 1136
1162 1162 1162
1189 1189 1189
423 423 423
449 449 449
475 475 475
502 502 502
528 528 528
555 555 555
581 581 581
607 607 607
634 634 634
660 660 660
687 687 687
713 713 713
740 740 740
766 766 766
792 792 792
819 819 819
845 845 845
872 872 872
898 898 898
924 924 924
951 951 951
977 977 977
1004 1004 1004
1030 1030 1030
1056 1056 1056
1083 1083 1083
1109 1109 1109
1136 1136 1136
1162 1162 1162
1189 1189 1189
1215 1215 1215
1241 1241 1241
475 475 475
502 502 502
528 528 528
555 555 555
581 581 581
607 607 607
634 634 634
660 660 660
687 687 687
713 713 713
740 740 740
766 766 766
792 792 792
819 819 819
845 845 845
872 872 872
898 898 898
924 924 924
951 951 951
977 977 977
1004 1004 1004
1030 1030 1030
1056 1056 1056
1083 1083 1083
1109 1109 1109
1136 1136 1136
1162 1162 1162
1189 1189 1189
1215 1215 1215
1241 1241 1241
1268 1268 1268
1294 1294 1294
528 528 528
555 555 555
581 581 581
607 607 607
634 634 634
660 660 660
687 687 687
713 713 713
740 740 740
766 766 766
792 792 792
819 819 819
845 845 845
872 872 872
898 898 898
924 924 924
951 951 951
977 977 977
1004 1004 1004
1030 1030 1030
1056 1056 1056
1083 1083 1083
1109 1109 1109
1136 1136 1136
1162 1162 1162
1189 1189 1189
1215 1215 1215
1241 1241 1241
1268 1268 1268
1294 1294 1294
1321 1321 1321
1347 1347 1347
581 581 581
607 607 607
634 634 634
660 660 660
687 687 687
713 713 713
740 740 740
766 766 766
792 792 792
819 819 819
845 845 845
872 872 872
898 898 898
924 924 924
951 951 951
977 977 977
1004 1004 1004
1030 1030 1030
1056 1056 1056
1083 1083 1083
1109 1109 1109
1136 1136 1136
1162 1162 1162
1189 1189 1189
1215 1215 1215
1241 1241 1241
1268 1268 1268
1294 1294 1294
1321 1321 1321
1347 1347 1347
1373 1373 1373
1400 1400 1400
634 634 634
660 660 660
687 687 687
713 713 713
740 740 740
766 766 766
792 792 792
819 819 819
845 845 845
872 872 872
898 898 898
924 924 924
951 951 951
977 977 977
1004 1004 1004
1030 1030 1030
1056 1056 1056
1083 1083 1083
1109 1109 1109
1136 1136 1136
1162 1162 1162
1189 1189 1189
1215 1215 1215
1241 1241 1241
1268 1268 1268
1294 1294 1294
1321 1321 1321
1347 1347 1347
1373 1373 1373
1400 1400 1400
1426 1426 1426
1453 1453 1453
687 687 687
713 713 713
740 740 740
766 766 766
792 792 792
819 819 819
845 845 845
872 872 872
898 898 898
924 924 924
951 951 951
977 977 977
1004 1004 1004
1030 1030 1030
1056 1056 1056
1083 1083 1083
1109 1109 1109
1136 1136 1136
1162 1162 1162
1189 1189 1189
1215 1215 1215
1241 1241 1241
1268 1268 1268
1294 1294 1294
1321 1321 1321
1347 1347 1347
1373 1373 1373
1400 1400 1400
1426 1426 1426
1453 1453 1453
1479 1479 1479
1506 1506 1506
740 740 740
766 766 766
792 792 792
819 819 819
845 845 845
872 872 872
898 898 898
924 924 924
951 951 951
977 977 977
1004 1004 1004
1030 1030 1030
1056 1056 1056
1083 1083 1083
1109 1109 1109
1136 1136 1136
1162 1162 1162
1189 1189 1189
1215 1215 1215
1241 1241 1241
1268 1268 1268
1294 1294 1294
1321 1321 1321
1347 1347 1347
1373 1373 1373
1400 1400 1400
1426 1426 1426
1453 1453 1453
1479 1479 1479
1506 1506 1506
1532 1532 1532
1558 1558 1558
792 792 792
819 819 819
845 845 845
872 872 872
898 898 898
924 924 924
951 951 951
977 977 977
1004 1004 1004
1030 1030 1030
1056 1056 1056
1083 1083 1083
1109 1109 1109
1136 1136 1136
1162 1162 1162
1189 1189 1189
1215 1215 1215
1241 1241 1241
1268 1268 1268
1294 1294 1294
1321 1321 1321
1347 1347 1347
1373 1373 1373
1400 1400 1400
1426 1426 1426
1453 1453 1453
1479 1479 1479
1506 1506 1506
1532 1532 1532
1558 1558 1558
1585 1585 1585
1611 1611 1611
845 845 845
872 872 872
898 898 898
925 925 925
951 951 951
977 977 977
1004 1004 1004
1030 1030 1030
1056 1056 1056
1083 1083 1083
1109 1109 1109
1136 1136 1136
1162 1162 1162
1189 1189 1189
1215 1215 1215
1241 1241 1241
1268 1268 1268
1294 1294 1294
1321 1321 1321
1347 1347 1347
1374 1374 1374
1400 1400 1400
1426 1426 1426
1453 1453 1453
1479 1479 1479
1506 1506 1506
1532 1532 1532
1558 1558 1558
1585 1585 1585
1611 1611 1611
1638 1638 1638
1664 1664 1664
898 898 898
925 925 925
951 951 951
977 977 977
1004 1004 1004
1030 1030 1030
1056 1056 1056
1083 1083 1083
1109 1109 1109
1136 1136 1136
1162 1162 1162
1189 1189 1189
1215 1215 1215
1241 1241 1241
1268 1268 1268
1294 1294 1294
1321 1321 1321
1347 1347 1347
1374 1374 1374
1400 1400 1400
1426 1426 1426
1453 1453 1453
1479 1479 1479
1506 1506 1506
1532 1532 1532
1558 1558 1558
1585 1585 1585
1611 1611 1611
1638 1638 1638
1664 1664 1664
1690 1690 1690
1717 1717 1717
951 951 951
977 977 977
1004 1004 1004
1030 1030 1030
1056 1056 1056
1083 1083 1083
1109 1109 1109
1136 1136 1136
1162 1162 1162
1189 1189 1189
1215 1215 1215
1241 1241 1241
1268 1268 1268
1294 1294 1294
1321 1321 1321
1347 1347 1347
1374 1374 1374
1400 1400 1400
1426 1426 1426
1453 1453 1453
1479 1479 1479
1506 1506 1506
1532 1532 1532
1558 1558 1558
1585 1585 1585
1611 1611 1611
1638 1638 1638
1664 1664 1664
1690 1690 1690
1717 1717 1717
1743 1743 1743
1770 1770 1770
1004 1004 1004
1030 1030 1030
1056 1056 1056
1083 1083 1083
1109 1109 1109
1136 1136 1136
1162 1162 1162
1189 1189 1189
1215 1215 1215
1241 1241 1241
1268 1268 1268
1294 1294 1294
1321 1321 1321
1347 1347 1347
1374 1374 1374
1400 1400 1400
1426 1426 1426
1453 1453 1453
1479 1479 1479
1506 1506 1506
1532 1532 1532
1558 1558 1558
1585 1585 1585
1611 1611 1611
1638 1638 1638
1664 1664 1664
1690 1690 1690
1717 1717 1717
1743 1743 1743
1770 1770 1770
1796 1796 1796
1823 1823 1823
1056 1056 1056
1083 1083 1083
1109 1109 1109
1136 1136 1136
1162 1162 1162
1189 1189 1189
1215 1215 1215
1241 1241 1241
1268 1268 1268
1294 1294 1294
1321 1321 1321
1347 1347 1347
1374 1374 1374
1400 1400 1400
1426 1426 1426
1453 1453 1453
1479 1479 1479
1506 1506 1506
1532 1532 1532
1558 1558 1558
1585 1585 1585
1611 1611 1611
1638 1638 1638
1664 1664 1664
1690 1690 1690
1717 1717 1717
1743 1743 1743
1770 1770 1770
1796 1796 1796
1823 1823 1823
1849 1849 1849
1875 1875 1875
1109 1109 1109
1136 1136 1136
1162 1162 1162
1189 1189 1189
1215 1215 1215
1241 1241 1241
1268 1268 1268
1294 1294 1294
1321 1321 1321
1347 1347 1347
1374 1374 1374
1400 1400 1400
1426 1426 1426
1453 1453 1453
1479 1479 1479
1506 1506 1506
1532 1532 1532
1558 1558 1558
1585 1585 1585
1611 1611 1611
1638 1638 1638
1664 1664 1664
1690 1690 1690
1717 1717 1717
1743 1743 1743
1770 1770 1770
1796 1796 1796
1823 1823 1823
1849 1849 1849
1875 1875 1875
1902 1902 1902
1928 1928 1928
1162 1162 1162
1189 1189 1189
1215 1215 1215
1241 1241 1241
1268 1268 1268
1294 1294 1294
1321 1321 1321
1347 1347 1347
1374 1374 1374
1400 1400 1400
1426 1426 1426
1453 1453 1453
1479 1479 1479
1506 1506 1506
1532 1532 1532
1558 1558 1558
1585 1585 1585
1611 1611 1611
1638 1638 1638
1664 1664 1664
1690 1690 1690
1717 1717 1717
1743 1743 1743
1770 1770 1770
1796 1796 1796
1823 1823 1823
1849 1849 1849
1875 1875 1875
1902 1902 1902
1928 1928 1928
1955 1955 1955
1981 1981 1981
1215 1215 1215
1241 1241 1241
1268 1268 1268
1294 1294 1294
1321 1321 1321
1347 1347 1347
1374 1374 1374
1400 1400 1400
1426 1426 1426
1453 1453 1453
1479 1479 1479
1506 1506 1506
1532 1532 1532
1558 1558 1558
1585 1585 1585
1611 1611 1611
1638 1638 1638
1664 1664 1664
1690 1690 1690
1717 1717 1717
1743 1743 1743
1770 1770 1770
1796 1796 1796
1823 1823 1823
1849 1849 1849
1875 1875 1875
1902 1902 1902
1928 1928 1928
1955 1955 1955
1981 1981 1981
2007 2007 2007
2034 2034 2034
1268 1268 1268
1294 1294 1294
1321 1321 1321
1347 1347 1347
1374 1374 1374
1400 1400 1400
1426 1426 1426
1453 1453 1453
1479 1479 1479
1506 1506 1506
1532 1532 1532
1558 1558 1558
1585 1585 1585
1611 1611 1611
1638 1638 1638
1664 1664 1664
1690 1690 1690
1717 1717 1717
1743 1743 1743
1770 1770 1770
1796 1796 1796
1823 1823 1823
1849 1849 1849
1875 1875 1875
1902 1902 1902
1928 1928 1928
1955 1955 1955
1981 1981 1981
2007 2007 2007
2034 2034 2034
2060 2060 2060
2087 2087 2087
1321 1321 1321
1347 1347 1347
1374 1374 1374
1400 1400 1400
1426 1426 1426
1453 1453 1453
1479 1479 1479
1506 1506 1506
1532 1532 1532
1558 1558 1558
1585 1585 1585
1611 1611 1611
1638 1638 1638
1664 1664 1664
1690 1690 1690
1717 1717 1717
1743 1743 1743
1770 1770 1770
1796 1796 1796
1823 1823 1823
1849 1849 1849
1875 1875 1875
1902 1902 1902
1928 1928 1928
1955 1955 1955
1981 1981 1981
2007 2007 2007
2034 2034 2034
2060 2060 2060
2087 2087 2087
2113 2113 2113
2139 2139 2139
1374 1374 1374
1400 1400 1400
1426 1426 1426
1453 1453 1453
1479 1479 1479
1506 1506 1506
1532 1532 1532
1558 1558 1558
1585 1585 1585
1611 1611 1611
1638 1638 1638
1664 1664 1664
1690 1690 1690
1717 1717 1717
1743 1743 1743
1770 1770 1770
1796 1796 1796
1823 1823 1823
1849 1849 1849
1875 1875 1875
1902 1902 1902
1928 1928 1928
1955 1955 1955
1981 1981 1981
2007 2007 2007
2034 2034 2034
2060 2060 2060
2087 2087 2087
2113 2113 2113
2139 2139 2139
2166 2166 2166
2192 2192 2192
1426 1426 1426
1453 1453 1453
1479 1479 1479
1506 1506 1506
1532 1532 1532
1558 1558 1558
1585 1585 1585
1611 1611 1611
1638 1638 1638
1664 1664 1664
1690 1690 1690
1717 1717 1717
1743 1743 1743
1770 1770 1770
1796 1796 1796
1822 1822 1822
1849 1849 1849
1875 1875 1875
1902 1902 1902
1928 1928 1928
1955 1955 1955
1981 1981 1981
2007 2007 2007
2034 2034 2034
2060 2060 2060
2087 2087 2087
2113 2113 2113
2139 2139 2139
2166 2166 2166
2192 2192 2192
2219 2219 2219
2245 2245 2245
1479 1479 1479
1506 1506 1506
1532 1532 1532
1558 1558 1558
