Assets/LUTs/warmLUT.CUBE
#Created by: Adobe Photoshop Export Color Lookup Plugin
TITLE "warmLUT"
#LUT size
LUT_3D_SIZE 32
#data domain
DOMAIN_MIN 0.0 0.0 0.0
DOMAIN_MAX 1.0 1.0 1.0
#LUT data points
0.000000 0.000000 0.000000
0.032257 0.000000 0.012360
0.064514 0.000000 0.024719
0.096771 0.000000 0.037079
0.129028 0.000000 0.049469
0.161285 0.000000 0.061829
0.193542 0.000000 0.074188
0.225800 0.000000 0.086548
0.258057 0.000000 0.098907
0.290314 0.000000 0.111267
0.322571 0.000000 0.123627
0.354828 0.000000 0.136017
0.387085 0.000000 0.148376
0.419342 0.000000 0.160736
0.451599 0.000000 0.173096
0.483856 0.000000 0.185455
0.516144 0.000000 0.197845
0.548401 0.000000 0.210205
0.580658 0.000000 0.222565
0.612915 0.000000 0.234924
0.645172 0.000000 0.247284
0.677429 0.000000 0.259674
0.709686 0.000000 0.272034
0.741943 0.000000 0.284393
0.774200 0.000000 0.296753
0.806458 0.000000 0.309113
0.838715 0.000000 0.321472
0.870972 0.000000 0.333832
0.903229 0.000000 0.346222
0.935486 0.000000 0.358582
0.967743 0.000000 0.370941
1.000000 0.000000 0.383301
0.012360 0.032257 0.000000
0.032257 0.019897 0.000000
0.064514 0.007538 0.000000
0.096771 0.000000 0.004852
0.129028 0.000000 0.017212
0.161285 0.000000 0.029572
0.193542 0.000000 0.041901
0.225800 0.000000 0.054291
0.258057 0.000000 0.066650
0.290314 0.000000 0.079041
0.322571 0.000000 0.091339
0.354828 0.000000 0.103790
0.387085 0.000000 0.116150
0.419342 0.000000 0.128479
0.451599 0.000000 0.140808
0.483856 0.000000 0.153198
0.516144 0.000000 0.165588
0.548401 0.000000 0.177948
0.580658 0.000000 0.190247
0.612915 0.000000 0.202606
0.645172 0.000000 0.214996
0.677429 0.000000 0.227417
0.709686 0.000000 0.239807
0.741943 0.000000 0.252136
0.774200 0.000000 0.264435
0.806458 0.000000 0.276825
0.838715 0.000000 0.289124
0.870972 0.000000 0.301514
0.903229 0.000000 0.314026
0.935486 0.000000 0.326355
0.967743 0.000000 0.338562
1.000000 0.000000 0.351074
0.024719 0.064514 0.000000
0.056976 0.064514 0.000000
0.064514 0.039795 0.000000
0.096771 0.027435 0.000000
0.129028 0.015045 0.000000
0.161285 0.002686 0.000000
0.193542 0.000000 0.009674
0.225800 0.000000 0.022064
0.258057 0.000000 0.034393
0.290314 0.000000 0.046783
0.322571 0.000000 0.059143
0.354828 0.000000 0.071472
0.387085 0.000000 0.083832
0.419342 0.000000 0.096222
0.451599 0.000000 0.108612
0.483856 0.000000 0.120972
0.516144 0.000000 0.133331
0.548401 0.000000 0.145660
0.580658 0.000000 0.158051
0.612915 0.000000 0.170441
0.645172 0.000000 0.182709
0.677429 0.000000 0.195160
0.709686 0.000000 0.207581
0.741943 0.000000 0.219910
0.774200 0.000000 0.232300
0.806458 0.000000 0.244537
0.838715 0.000000 0.256989
0.870972 0.000000 0.269409
0.903229 0.000000 0.281586
0.935486 0.000000 0.294159
0.967743 0.000000 0.306427
1.000000 0.000000 0.318848
0.037079 0.096771 0.000000
0.069336 0.096771 0.000000
0.096771 0.091919 0.000000
0.096771 0.059692 0.000000
0.129028 0.047302 0.000000
0.161285 0.034973 0.000000
0.193542 0.022583 0.000000
0.225800 0.010193 0.000000
0.258057 0.000000 0.002136
0.290314 0.000000 0.014526
0.322571 0.000000 0.026855
0.354828 0.000000 0.039246
0.387085 0.000000 0.051605
0.419342 0.000000 0.063995
0.451599 0.000000 0.076294
0.483856 0.000000 0.088715
0.516144 0.000000 0.101074
0.548401 0.000000 0.113403
0.580658 0.000000 0.125732
0.612915 0.000000 0.138123
0.645172 0.000000 0.150574
0.677429 0.000000 0.162903
0.709686 0.000000 0.175171
0.741943 0.000000 0.187653
0.774200 0.000000 0.199982
0.806458 0.000000 0.212250
0.838715 0.000000 0.224640
0.870972 0.000000 0.237091
0.903229 0.000000 0.249390
0.935486 0.000000 0.261749
0.967743 0.000000 0.274078
1.000000 0.000000 0.286621
0.049469 0.129028 0.000000
0.081726 0.129028 0.000000
0.113983 0.129028 0.000000
0.129028 0.111816 0.000000
0.129028 0.079559 0.000000
0.161285 0.067230 0.000000
0.193542 0.054871 0.000000
0.225800 0.042511 0.000000
0.258057 0.030121 0.000000
0.290314 0.017731 0.000000
0.322571 0.005341 0.000000
0.354828 0.000000 0.007019
0.387085 0.000000 0.019379
0.419342 0.000000 0.031738
0.451599 0.000000 0.044098
0.483856 0.000000 0.056458
0.516144 0.000000 0.068817
0.548401 0.000000 0.081146
0.580658 0.000000 0.093567
0.612915 0.000000 0.105957
0.645172 0.000000 0.118286
0.677429 0.000000 0.130646
0.709686 0.000000 0.142944
0.741943 0.000000 0.155426
0.774200 0.000000 0.167664
0.806458 0.000000 0.180145
0.838715 0.000000 0.192474
0.870972 0.000000 0.204773
0.903229 0.000000 0.217194
0.935486 0.000000 0.229523
0.967743 0.000000 0.241943
1.000000 0.000000 0.254150
0.061829 0.161285 0.000000
0.094055 0.161285 0.000000
0.126312 0.161285 0.000000
0.158600 0.161285 0.000000
0.161285 0.131714 0.000000
0.161285 0.099457 0.000000
0.193542 0.087097 0.000000
0.225800 0.074738 0.000000
0.258057 0.062378 0.000000
0.290314 0.050049 0.000000
0.322571 0.037659 0.000000
0.354828 0.025299 0.000000
0.387085 0.012939 0.000000
0.419342 0.000519 0.000000
0.451599 0.000000 0.011810
0.483856 0.000000 0.024231
0.516144 0.000000 0.036530
0.548401 0.000000 0.048859
0.580658 0.000000 0.061249
0.612915 0.000000 0.073608
0.645172 0.000000 0.085999
0.677429 0.000000 0.098419
0.709686 0.000000 0.110718
0.741943 0.000000 0.123169
0.774200 0.000000 0.135529
0.806458 0.000000 0.147858
0.838715 0.000000 0.160126
0.870972 0.000000 0.172668
0.903229 0.000000 0.184998
0.935486 0.000000 0.197327
0.967743 0.000000 0.209564
1.000000 0.000000 0.221924
0.074188 0.193542 0.000000
0.106445 0.193542 0.000000
0.138672 0.193542 0.000000
0.170959 0.193542 0.000000
0.193542 0.183868 0.000000
0.193542 0.151642 0.000000
0.193542 0.119354 0.000000
0.225800 0.106995 0.000000
0.258057 0.094635 0.000000
0.290314 0.082275 0.000000
0.322571 0.069946 0.000000
0.354828 0.057526 0.000000
0.387085 0.045166 0.000000
0.419342 0.032776 0.000000
0.451599 0.020386 0.000000
0.483856 0.008026 0.000000
0.516144 0.000000 0.004272
0.548401 0.000000 0.016602
0.580658 0.000000 0.029053
0.612915 0.000000 0.041443
0.645172 0.000000 0.053711
0.677429 0.000000 0.066162
0.709686 0.000000 0.078491
0.741943 0.000000 0.090942
0.774200 0.000000 0.103210
0.806458 0.000000 0.115570
0.838715 0.000000 0.127991
0.870972 0.000000 0.140350
0.903229 0.000000 0.152588
0.935486 0.000000 0.165131
0.967743 0.000000 0.177429
1.000000 0.000000 0.189697
0.086548 0.225800 0.000000
0.118805 0.225800 0.000000
0.151062 0.225800 0.000000
0.183289 0.225800 0.000000
0.215607 0.225800 0.000000
0.225800 0.203735 0.000000
0.225800 0.171509 0.000000
0.225800 0.139252 0.000000
0.258057 0.126892 0.000000
0.290314 0.114532 0.000000
0.322571 0.102142 0.000000
0.354828 0.089844 0.000000
0.387085 0.077393 0.000000
0.419342 0.065125 0.000000
0.451599 0.052704 0.000000
0.483856 0.040283 0.000000
0.516144 0.027985 0.000000
0.548401 0.015533 0.000000
0.580658 0.003265 0.000000
0.612915 0.000000 0.009125
0.645172 0.000000 0.021423
0.677429 0.000000 0.033905
0.709686 0.000000 0.046265
0.741943 0.000000 0.058502
0.774200 0.000000 0.070892
0.806458 0.000000 0.083282
0.838715 0.000000 0.095612
0.870972 0.000000 0.108032
0.903229 0.000000 0.120392
0.935486 0.000000 0.132690
0.967743 0.000000 0.145081
1.000000 0.000000 0.157471
0.098907 0.258057 0.000000
0.131165 0.258057 0.000000
0.163422 0.258057 0.000000
0.195679 0.258057 0.000000
0.227936 0.258057 0.000000
0.258057 0.255920 0.000000
0.258057 0.223663 0.000000
0.258057 0.191406 0.000000
0.258057 0.159149 0.000000
0.290314 0.146790 0.000000
0.322571 0.134430 0.000000
0.354828 0.122070 0.000000
0.387085 0.109711 0.000000
0.419342 0.097351 0.000000
0.451599 0.084991 0.000000
0.483856 0.072662 0.000000
0.516144 0.060242 0.000000
0.548401 0.047791 0.000000
0.580658 0.035431 0.000000
0.612915 0.023193 0.000000
0.645172 0.010712 0.000000
0.677429 0.000000 0.001648
0.709686 0.000000 0.014038
0.741943 0.000000 0.026276
0.774200 0.000000 0.038757
0.806458 0.000000 0.050995
0.838715 0.000000 0.063477
0.870972 0.000000 0.075714
0.903229 0.000000 0.088196
0.935486 0.000000 0.100494
0.967743 0.000000 0.112946
1.000000 0.000000 0.125244
0.111267 0.290314 0.000000
0.143524 0.290314 0.000000
0.175781 0.290314 0.000000
0.208038 0.290314 0.000000
0.240265 0.290314 0.000000
0.272583 0.290314 0.000000
0.290314 0.275787 0.000000
0.290314 0.243530 0.000000
0.290314 0.211273 0.000000
0.290314 0.179047 0.000000
0.322571 0.166626 0.000000
0.354828 0.154297 0.000000
0.387085 0.141937 0.000000
0.419342 0.129608 0.000000
0.451599 0.117188 0.000000
0.483856 0.104889 0.000000
0.516144 0.092499 0.000000
0.548401 0.080078 0.000000
0.580658 0.067749 0.000000
0.612915 0.055359 0.000000
0.645172 0.042999 0.000000
0.677429 0.030609 0.000000
0.709686 0.018372 0.000000
0.741943 0.005981 0.000000
0.774200 0.000000 0.006439
0.806458 0.000000 0.018707
0.838715 0.000000 0.031128
0.870972 0.000000 0.043579
0.903229 0.000000 0.055786
0.935486 0.000000 0.068298
0.967743 0.000000 0.080566
1.000000 0.000000 0.093018
0.123627 0.322571 0.000000
0.155945 0.322571 0.000000
0.188141 0.322571 0.000000
0.220428 0.322571 0.000000
0.252625 0.322571 0.000000
0.284912 0.322571 0.000000
0.317230 0.322571 0.000000
0.322571 0.295715 0.000000
0.322571 0.263428 0.000000
0.322571 0.231232 0.000000
0.322571 0.198944 0.000000
0.354828 0.186584 0.000000
0.387085 0.174164 0.000000
0.419342 0.161865 0.000000
0.451599 0.149506 0.000000
0.483856 0.137146 0.000000
0.516144 0.124756 0.000000
0.548401 0.112335 0.000000
0.580658 0.099945 0.000000
0.612915 0.087677 0.000000
0.645172 0.075287 0.000000
0.677429 0.062836 0.000000
0.709686 0.050598 0.000000
0.741943 0.038208 0.000000
0.774200 0.025909 0.000000
0.806458 0.013397 0.000000
0.838715 0.001038 0.000000
0.870972 0.000000 0.011261
0.903229 0.000000 0.023590
0.935486 0.000000 0.036072
0.967743 0.000000 0.048431
1.000000 0.000000 0.060791
0.136017 0.354828 0.000000
0.168243 0.354828 0.000000
0.200531 0.354828 0.000000
0.232758 0.354828 0.000000
0.264984 0.354828 0.000000
0.297302 0.354828 0.000000
0.329529 0.354828 0.000000
0.354828 0.347809 0.000000
0.354828 0.315582 0.000000
0.354828 0.283356 0.000000
0.354828 0.251038 0.000000
0.354828 0.218811 0.000000
0.387085 0.206482 0.000000
0.419342 0.194122 0.000000
0.451599 0.181702 0.000000
0.483856 0.169403 0.000000
0.516144 0.157013 0.000000
0.548401 0.144592 0.000000
0.580658 0.132263 0.000000
0.612915 0.119873 0.000000
0.645172 0.107574 0.000000
0.677429 0.095093 0.000000
0.709686 0.082825 0.000000
0.741943 0.070465 0.000000
0.774200 0.058014 0.000000
0.806458 0.045685 0.000000
0.838715 0.033386 0.000000
0.870972 0.021057 0.000000
0.903229 0.008606 0.000000
0.935486 0.000000 0.003662
0.967743 0.000000 0.016052
1.000000 0.000000 0.028564
0.148376 0.387085 0.000000
0.180603 0.387085 0.000000
0.212921 0.387085 0.000000
0.245148 0.387085 0.000000
0.277374 0.387085 0.000000
0.309692 0.387085 0.000000
0.341919 0.387085 0.000000
0.374146 0.387085 0.000000
0.387085 0.367706 0.000000
0.387085 0.335480 0.000000
0.387085 0.303253 0.000000
0.387085 0.270935 0.000000
0.387085 0.238708 0.000000
0.419342 0.226349 0.000000
0.451599 0.213989 0.000000
0.483856 0.201660 0.000000
0.516144 0.189270 0.000000
0.548401 0.176880 0.000000
0.580658 0.164581 0.000000
0.612915 0.152191 0.000000
0.645172 0.139709 0.000000
0.677429 0.127350 0.000000
0.709686 0.115051 0.000000
0.741943 0.102692 0.000000
0.774200 0.090363 0.000000
0.806458 0.077972 0.000000
0.838715 0.065521 0.000000
0.870972 0.053162 0.000000
0.903229 0.040802 0.000000
0.935486 0.028534 0.000000
0.967743 0.016052 0.000000
1.000000 0.003906 0.000000
0.160736 0.419342 0.000000
0.192993 0.419342 0.000000
0.225220 0.419342 0.000000
0.257477 0.419342 0.000000
0.289734 0.419342 0.000000
0.321991 0.419342 0.000000
0.354218 0.419342 0.000000
0.386566 0.419342 0.000000
0.418823 0.419342 0.000000
0.419342 0.387604 0.000000
0.419342 0.355347 0.000000
0.419342 0.323120 0.000000
0.419342 0.290863 0.000000
0.419342 0.258606 0.000000
0.451599 0.246185 0.000000
0.483856 0.233887 0.000000
0.516144 0.221527 0.000000
0.548401 0.209137 0.000000
0.580658 0.196777 0.000000
0.612915 0.184357 0.000000
0.645172 0.171997 0.000000
0.677429 0.159760 0.000000
0.709686 0.147278 0.000000
0.741943 0.134949 0.000000
0.774200 0.122681 0.000000
0.806458 0.110260 0.000000
0.838715 0.097870 0.000000
0.870972 0.085480 0.000000
0.903229 0.073212 0.000000
0.935486 0.060760 0.000000
0.967743 0.048431 0.000000
1.000000 0.036133 0.000000
0.173096 0.451599 0.000000
0.205414 0.451599 0.000000
0.237610 0.451599 0.000000
0.269897 0.451599 0.000000
0.302094 0.451599 0.000000
0.334412 0.451599 0.000000
0.366608 0.451599 0.000000
0.398895 0.451599 0.000000
0.431213 0.451599 0.000000
0.451599 0.439789 0.000000
0.451599 0.407501 0.000000
0.451599 0.375305 0.000000
0.451599 0.342987 0.000000
0.451599 0.310791 0.000000
0.451599 0.278503 0.000000
0.483856 0.266144 0.000000
0.516144 0.253784 0.000000
0.548401 0.241394 0.000000
0.580658 0.229095 0.000000
0.612915 0.216675 0.000000
0.645172 0.204285 0.000000
0.677429 0.192017 0.000000
0.709686 0.179504 0.000000
0.741943 0.167206 0.000000
0.774200 0.154816 0.000000
0.806458 0.142548 0.000000
0.838715 0.130035 0.000000
0.870972 0.117798 0.000000
0.903229 0.105408 0.000000
0.935486 0.092957 0.000000
0.967743 0.080566 0.000000
1.000000 0.068359 0.000000
0.185455 0.483856 0.000000
0.217712 0.483856 0.000000
0.249969 0.483856 0.000000
0.282196 0.483856 0.000000
0.314453 0.483856 0.000000
0.346710 0.483856 0.000000
0.378967 0.483856 0.000000
0.411194 0.483856 0.000000
0.443573 0.483856 0.000000
0.475830 0.483856 0.000000
0.483856 0.459625 0.000000
0.483856 0.427399 0.000000
0.483856 0.395142 0.000000
0.483856 0.362885 0.000000
0.483856 0.330658 0.000000
0.483856 0.298401 0.000000
0.516144 0.286041 0.000000
0.548401 0.273651 0.000000
0.580658 0.261261 0.000000
0.612915 0.248993 0.000000
0.645172 0.236572 0.000000
0.677429 0.224274 0.000000
0.709686 0.211914 0.000000
0.741943 0.199432 0.000000
0.774200 0.187134 0.000000
0.806458 0.174835 0.000000
0.838715 0.162384 0.000000
0.870972 0.149902 0.000000
0.903229 0.137604 0.000000
0.935486 0.125397 0.000000
0.967743 0.112946 0.000000
1.000000 0.100586 0.000000
0.197845 0.516144 0.000000
0.230103 0.516144 0.000000
0.262360 0.516144 0.000000
0.294617 0.516144 0.000000
0.326874 0.516144 0.000000
0.359131 0.516144 0.000000
0.391388 0.516144 0.000000
0.423645 0.516144 0.000000
0.455902 0.516144 0.000000
0.488159 0.516144 0.000000
0.516144 0.511871 0.000000
0.516144 0.479614 0.000000
0.516144 0.447327 0.000000
0.516144 0.415070 0.000000
0.516144 0.382813 0.000000
0.516144 0.350555 0.000000
0.516144 0.318298 0.000000
0.548401 0.305939 0.000000
0.580658 0.293579 0.000000
0.612915 0.281158 0.000000
0.645172 0.268860 0.000000
0.677429 0.256531 0.000000
0.709686 0.244141 0.000000
0.741943 0.231689 0.000000
0.774200 0.219452 0.000000
0.806458 0.206940 0.000000
0.838715 0.194733 0.000000
0.870972 0.182220 0.000000
0.903229 0.170013 0.000000
0.935486 0.157593 0.000000
0.967743 0.145294 0.000000
1.000000 0.132813 0.000000
0.210205 0.548401 0.000000
0.242462 0.548401 0.000000
0.274750 0.548401 0.000000
0.307007 0.548401 0.000000
0.339264 0.548401 0.000000
0.371521 0.548401 0.000000
0.403809 0.548401 0.000000
0.435944 0.548401 0.000000
0.468201 0.548401 0.000000
0.500458 0.548401 0.000000
0.532745 0.548401 0.000000
0.548401 0.531799 0.000000
0.548401 0.499542 0.000000
0.548401 0.467255 0.000000
0.548401 0.434998 0.000000
0.548401 0.402740 0.000000
0.548401 0.370453 0.000000
0.548401 0.338196 0.000000
0.580658 0.325775 0.000000
0.612915 0.313477 0.000000
0.645172 0.301178 0.000000
0.677429 0.288757 0.000000
0.709686 0.276367 0.000000
0.741943 0.264099 0.000000
0.774200 0.251587 0.000000
0.806458 0.239227 0.000000
0.838715 0.226868 0.000000
0.870972 0.214539 0.000000
0.903229 0.202209 0.000000
0.935486 0.189789 0.000000
0.967743 0.177429 0.000000
1.000000 0.165039 0.000000
0.222565 0.580658 0.000000
0.254883 0.580658 0.000000
0.287079 0.580658 0.000000
0.319397 0.580658 0.000000
0.351563 0.580658 0.000000
0.383881 0.580658 0.000000
0.416077 0.580658 0.000000
0.448395 0.580658 0.000000
0.480560 0.580658 0.000000
0.512909 0.580658 0.000000
0.545074 0.580658 0.000000
0.577393 0.580658 0.000000
0.580658 0.551605 0.000000
0.580658 0.519409 0.000000
0.580658 0.487091 0.000000
0.580658 0.454926 0.000000
0.580658 0.422607 0.000000
0.580658 0.390411 0.000000
0.580658 0.358093 0.000000
0.612915 0.345673 0.000000
0.645172 0.333282 0.000000
0.677429 0.321014 0.000000
0.709686 0.308594 0.000000
0.741943 0.296356 0.000000
0.774200 0.283905 0.000000
0.806458 0.271515 0.000000
0.838715 0.259247 0.000000
0.870972 0.246887 0.000000
0.903229 0.234406 0.000000
0.935486 0.221985 0.000000
0.967743 0.209808 0.000000
1.000000 0.197266 0.000000
0.234924 0.612915 0.000000
0.267242 0.612915 0.000000
0.299438 0.612915 0.000000
0.331757 0.612915 0.000000
0.363922 0.612915 0.000000
0.396240 0.612915 0.000000
0.428406 0.612915 0.000000
0.460724 0.612915 0.000000
0.493042 0.612915 0.000000
0.525238 0.612915 0.000000
0.557556 0.612915 0.000000
0.589722 0.612915 0.000000
0.612915 0.603790 0.000000
0.612915 0.571625 0.000000
0.612915 0.539307 0.000000
0.612915 0.506958 0.000000
0.612915 0.474792 0.000000
0.612915 0.442474 0.000000
0.612915 0.410309 0.000000
0.612915 0.377991 0.000000
0.645172 0.365601 0.000000
0.677429 0.353271 0.000000
0.709686 0.340820 0.000000
0.741943 0.328583 0.000000
0.774200 0.316223 0.000000
0.806458 0.303802 0.000000
0.838715 0.291382 0.000000
0.870972 0.278992 0.000000
0.903229 0.266602 0.000000
0.935486 0.254425 0.000000
0.967743 0.241943 0.000000
1.000000 0.229736 0.000000
0.247284 0.645172 0.000000
0.279572 0.645172 0.000000
0.311890 0.645172 0.000000
0.343994 0.645172 0.000000
0.376312 0.645172 0.000000
0.408600 0.645172 0.000000
0.440887 0.645172 0.000000
0.473175 0.645172 0.000000
0.505310 0.645172 0.000000
0.537598 0.645172 0.000000
0.569885 0.645172 0.000000
0.602173 0.645172 0.000000
0.634308 0.645172 0.000000
0.645172 0.623749 0.000000
0.645172 0.591461 0.000000
0.645172 0.559174 0.000000
0.645172 0.526886 0.000000
0.645172 0.494598 0.000000
0.645172 0.462463 0.000000
0.645172 0.430176 0.000000
0.645172 0.397888 0.000000
0.677429 0.385529 0.000000
0.709686 0.373199 0.000000
0.741943 0.360840 0.000000
0.774200 0.348358 0.000000
0.806458 0.336090 0.000000
0.838715 0.323730 0.000000
0.870972 0.311310 0.000000
0.903229 0.299011 0.000000
0.935486 0.286621 0.000000
0.967743 0.274292 0.000000
1.000000 0.261963 0.000000
0.259674 0.677429 0.000000
0.291901 0.677429 0.000000
0.324158 0.677429 0.000000
0.356415 0.677429 0.000000
0.388672 0.677429 0.000000
0.420898 0.677429 0.000000
0.453156 0.677429 0.000000
0.485413 0.677429 0.000000
0.517670 0.677429 0.000000
0.549927 0.677429 0.000000
0.582153 0.677429 0.000000
0.614410 0.677429 0.000000
0.646667 0.677429 0.000000
0.677429 0.675781 0.000000
0.677429 0.643524 0.000000
0.677429 0.611267 0.000000
0.677429 0.579010 0.000000
0.677429 0.546783 0.000000
0.677429 0.514526 0.000000
0.677429 0.482269 0.000000
0.677429 0.450012 0.000000
0.677429 0.417755 0.000000
0.709686 0.405426 0.000000
0.741943 0.393066 0.000000
0.774200 0.380676 0.000000
0.806458 0.368378 0.000000
0.838715 0.355865 0.000000
0.870972 0.343628 0.000000
0.903229 0.331207 0.000000
0.935486 0.318848 0.000000
0.967743 0.306427 0.000000
1.000000 0.294189 0.000000
0.272034 0.709686 0.000000
0.304260 0.709686 0.000000
0.336487 0.709686 0.000000
0.368866 0.709686 0.000000
0.401093 0.709686 0.000000
0.433319 0.709686 0.000000
0.465546 0.709686 0.000000
0.497772 0.709686 0.000000
0.529999 0.709686 0.000000
0.562408 0.709686 0.000000
0.594635 0.709686 0.000000
0.626862 0.709686 0.000000
0.659088 0.709686 0.000000
0.691315 0.709686 0.000000
0.709686 0.695831 0.000000
0.709686 0.663422 0.000000
0.709686 0.631195 0.000000
0.709686 0.598969 0.000000
0.709686 0.566742 0.000000
0.709686 0.534515 0.000000
0.709686 0.502106 0.000000
0.709686 0.469879 0.000000
0.709686 0.437653 0.000000
0.741943 0.425323 0.000000
0.774200 0.412994 0.000000
0.806458 0.400482 0.000000
0.838715 0.388245 0.000000
0.870972 0.375946 0.000000
0.903229 0.363403 0.000000
0.935486 0.351044 0.000000
0.967743 0.338806 0.000000
1.000000 0.326416 0.000000
0.284393 0.741943 0.000000
0.316620 0.741943 0.000000
0.348877 0.741943 0.000000
0.381104 0.741943 0.000000
0.413361 0.741943 0.000000
0.445587 0.741943 0.000000
0.477844 0.741943 0.000000
0.510254 0.741943 0.000000
0.542511 0.741943 0.000000
0.574738 0.741943 0.000000
0.606995 0.741943 0.000000
0.639252 0.741943 0.000000
0.671478 0.741943 0.000000
0.703735 0.741943 0.000000
0.735962 0.741943 0.000000
0.741943 0.715668 0.000000
0.741943 0.683441 0.000000
0.741943 0.651001 0.000000
0.741943 0.618774 0.000000
0.741943 0.586517 0.000000
0.741943 0.554291 0.000000
0.741943 0.522034 0.000000
0.741943 0.489807 0.000000
0.741943 0.457550 0.000000
0.774200 0.445129 0.000000
0.806458 0.432770 0.000000
0.838715 0.420380 0.000000
0.870972 0.408051 0.000000
0.903229 0.395813 0.000000
0.935486 0.383453 0.000000
0.967743 0.370941 0.000000
1.000000 0.358643 0.000000
0.296753 0.774200 0.000000
0.329071 0.774200 0.000000
0.361206 0.774200 0.000000
0.393524 0.774200 0.000000
0.425842 0.774200 0.000000
0.457977 0.774200 0.000000
0.490295 0.774200 0.000000
0.522614 0.774200 0.000000
0.554749 0.774200 0.000000
0.587067 0.774200 0.000000
0.619385 0.774200 0.000000
0.651520 0.774200 0.000000
0.683838 0.774200 0.000000
0.716187 0.774200 0.000000
0.748291 0.774200 0.000000
0.774200 0.767761 0.000000
0.774200 0.735443 0.000000
0.774200 0.703308 0.000000
0.774200 0.670990 0.000000
0.774200 0.638672 0.000000
0.774200 0.606537 0.000000
0.774200 0.574219 0.000000
0.774200 0.541901 0.000000
0.774200 0.509766 0.000000
0.774200 0.477448 0.000000
0.806458 0.465057 0.000000
0.838715 0.452728 0.000000
0.870972 0.440369 0.000000
0.903229 0.428009 0.000000
0.935486 0.415680 0.000000
0.967743 0.403290 0.000000
1.000000 0.390869 0.000000
0.309113 0.806458 0.000000
0.341400 0.806458 0.000000
0.373688 0.806458 0.000000
0.405975 0.806458 0.000000
0.438080 0.806458 0.000000
0.470367 0.806458 0.000000
0.502655 0.806458 0.000000
0.534943 0.806458 0.000000
0.567230 0.806458 0.000000
0.599518 0.806458 0.000000
0.631622 0.806458 0.000000
0.663910 0.806458 0.000000
0.696198 0.806458 0.000000
0.728485 0.806458 0.000000
0.760773 0.806458 0.000000
0.793060 0.806458 0.000000
0.806458 0.787750 0.000000
0.806458 0.755463 0.000000
0.806458 0.723175 0.000000
0.806458 0.690887 0.000000
0.806458 0.658600 0.000000
0.806458 0.626312 0.000000
0.806458 0.594208 0.000000
0.806458 0.561920 0.000000
0.806458 0.529633 0.000000
0.806458 0.497345 0.000000
0.838715 0.484894 0.000000
0.870972 0.472687 0.000000
0.903229 0.460205 0.000000
0.935486 0.447876 0.000000
0.967743 0.435425 0.000000
1.000000 0.423096 0.000000
0.321472 0.838715 0.000000
0.353821 0.838715 0.000000
0.385986 0.838715 0.000000
0.418335 0.838715 0.000000
0.450470 0.838715 0.000000
0.482849 0.838715 0.000000
0.514984 0.838715 0.000000
0.547333 0.838715 0.000000
0.579468 0.838715 0.000000
0.611847 0.838715 0.000000
0.643982 0.838715 0.000000
0.676331 0.838715 0.000000
0.708496 0.838715 0.000000
0.740845 0.838715 0.000000
0.772980 0.838715 0.000000
0.805328 0.838715 0.000000
0.837677 0.838715 0.000000
0.838715 0.807587 0.000000
0.838715 0.775238 0.000000
0.838715 0.743103 0.000000
0.838715 0.710724 0.000000
0.838715 0.678589 0.000000
0.838715 0.646240 0.000000
0.838715 0.614075 0.000000
0.838715 0.581726 0.000000
0.838715 0.549591 0.000000
0.838715 0.517242 0.000000
0.870972 0.504791 0.000000
0.903229 0.492401 0.000000
0.935486 0.480072 0.000000
0.967743 0.467804 0.000000
1.000000 0.455322 0.000000
0.333832 0.870972 0.000000
0.366180 0.870972 0.000000
0.398285 0.870972 0.000000
0.430603 0.870972 0.000000
0.462921 0.870972 0.000000
0.495026 0.870972 0.000000
0.527344 0.870972 0.000000
0.559662 0.870972 0.000000
0.591980 0.870972 0.000000
0.624084 0.870972 0.000000
0.656433 0.870972 0.000000
0.688751 0.870972 0.000000
0.720856 0.870972 0.000000
0.753174 0.870972 0.000000
0.785492 0.870972 0.000000
0.817596 0.870972 0.000000
0.849915 0.870972 0.000000
0.870972 0.859711 0.000000
