Assets/LUTs/warmLUT.CUBE
#Created by: Adobe Photoshop Export Color Lookup Plugin
TITLE "warmLUT"
#LUT size
LUT_3D_SIZE 8
#data domain
#LUT data points
DOMAIN_MIN 0.000000 0.000000 0.000000
DOMAIN_MAX 0.903226 0.903226 0.903226
0.000000 0.000000 0.000000
0.129028 0.000000 0.049469
0.258057 0.000000 0.098907
0.387085 0.000000 0.148376
0.516144 0.000000 0.197845
0.645172 0.000000 0.247284
0.774200 0.000000 0.296753
0.903229 0.000000 0.346222
0.049469 0.129028 0.000000
0.129028 0.079559 0.000000
0.258057 0.030121 0.000000
0.387085 0.000000 0.019379
0.516144 0.000000 0.068817
0.645172 0.000000 0.118286
0.774200 0.000000 0.167664
0.903229 0.000000 0.217194
0.098907 0.258057 0.000000
0.227936 0.258057 0.000000
0.258057 0.159149 0.000000
0.387085 0.109711 0.000000
0.516144 0.060242 0.000000
0.645172 0.010712 0.000000
0.774200 0.000000 0.038757
0.903229 0.000000 0.088196
0.148376 0.387085 0.000000
0.277374 0.387085 0.000000
0.387085 0.367706 0.000000
0.387085 0.238708 0.000000
0.516144 0.189270 0.000000
0.645172 0.139709 0.000000
0.774200 0.090363 0.000000
0.903229 0.040802 0.000000
0.197845 0.516144 0.000000
0.326874 0.516144 0.000000
0.455902 0.516144 0.000000
0.516144 0.447327 0.000000
0.516144 0.318298 0.000000
0.645172 0.268860 0.000000
0.774200 0.219452 0.000000
0.903229 0.170013 0.000000
0.247284 0.645172 0.000000
0.376312 0.645172 0.000000
0.505310 0.645172 0.000000
0.634308 0.645172 0.000000
0.645172 0.526886 0.000000
0.645172 0.397888 0.000000
0.774200 0.348358 0.000000
0.903229 0.299011 0.000000
0.296753 0.774200 0.000000
0.425842 0.774200 0.000000
0.554749 0.774200 0.000000
0.683838 0.774200 0.000000
0.774200 0.735443 0.000000
0.774200 0.606537 0.000000
0.774200 0.477448 0.000000
0.903229 0.428009 0.000000
0.346222 0.903229 0.000000
0.475220 0.903229 0.000000
0.604218 0.903229 0.000000
0.733215 0.903229 0.000000
0.862427 0.903229 0.000000
0.903229 0.815033 0.000000
0.903229 0.686035 0.000000
0.903229 0.557007 0.000000
0.000000 0.049469 0.129028
0.079559 0.000000 0.129028
0.258057 0.000000 0.227936
0.387085 0.000000 0.277374
0.516144 0.000000 0.326874
0.645172 0.000000 0.376312
0.774200 0.000000 0.425842
0.903229 0.000000 0.475220
0.000000 0.129028 0.079559
0.129028 0.129028 0.129028
0.314514 0.072571 0.165314
0.499969 0.016113 0.201569
0.645172 0.000000 0.247284
0.774200 0.000000 0.296753
0.903229 0.000000 0.346222
1.000000 0.032257 0.403198
0.000000 0.258057 0.030121
0.165314 0.314514 0.072571
0.314514 0.221771 0.072571
0.499969 0.072571 0.016113
0.645172 0.000000 0.032288
0.774200 0.000000 0.103210
0.903229 0.000000 0.165619
1.000000 0.032257 0.241821
0.019379 0.387085 0.000000
0.201569 0.499969 0.016113
0.443512 0.499969 0.016113
0.499969 0.314514 0.016113
0.645172 0.182709 0.000000
0.774200 0.090363 0.000000
0.903229 0.014984 0.000000
1.000000 0.032257 0.080688
0.068817 0.516144 0.000000
0.247284 0.645172 0.000000
0.462311 0.645172 0.000000
0.645172 0.613037 0.000000
0.645172 0.397888 0.000000
0.774200 0.283905 0.000000
0.903229 0.195831 0.000000
1.000000 0.145203 0.032257
0.118286 0.645172 0.000000
0.296753 0.774200 0.000000
0.490295 0.774200 0.000000
0.683838 0.774200 0.000000
0.774200 0.670990 0.000000
0.774200 0.477448 0.000000
0.903229 0.376404 0.000000
1.000000 0.306549 0.032257
0.167664 0.774200 0.000000
0.346222 0.903229 0.000000
0.526825 0.903229 0.000000
0.707397 0.903229 0.000000
0.888245 0.903229 0.000000
0.903229 0.737610 0.000000
0.903229 0.557007 0.000000
1.000000 0.467682 0.032257
0.217194 0.903229 0.000000
0.403198 1.000000 0.032257
0.564575 1.000000 0.032257
0.725708 1.000000 0.032257
0.887054 1.000000 0.032257
1.000000 0.951569 0.032257
1.000000 0.790436 0.032257
1.000000 0.629059 0.032257
0.000000 0.098907 0.258057
0.030121 0.000000 0.258057
0.159149 0.000000 0.258057
0.367706 0.000000 0.387085
0.516144 0.000000 0.455902
0.645172 0.000000 0.505310
0.774200 0.000000 0.554749
0.903229 0.000000 0.604218
0.000000 0.227936 0.258057
0.072571 0.165314 0.314514
0.221771 0.072571 0.314514
0.499969 0.016113 0.443512
0.645172 0.000000 0.462311
0.774200 0.000000 0.490295
0.903229 0.000000 0.526825
1.000000 0.032257 0.564575
0.000000 0.258057 0.159149
0.072571 0.314514 0.221771
0.258057 0.258057 0.258057
0.443542 0.201599 0.294342
0.629059 0.145142 0.330627
0.814514 0.088684 0.366882
1.000000 0.032257 0.403198
1.000000 0.161285 0.482758
0.000000 0.387085 0.109711
0.016113 0.499969 0.072571
0.294342 0.443542 0.201599
0.443542 0.350800 0.201599
0.629059 0.201599 0.145142
0.814514 0.088684 0.125000
1.000000 0.032257 0.161255
1.000000 0.161285 0.315063
0.000000 0.516144 0.060242
0.032288 0.645172 0.000000
0.330627 0.629059 0.145142
0.572601 0.629059 0.145142
0.629059 0.443573 0.145142
0.814514 0.294434 0.088684
1.000000 0.145203 0.032257
1.000000 0.175415 0.161285
0.000000 0.645172 0.010712
0.103210 0.774200 0.000000
0.366882 0.814514 0.088684
0.608765 0.814514 0.088684
0.814514 0.778198 0.088684
0.814514 0.536316 0.088684
1.000000 0.387115 0.032257
1.000000 0.343109 0.161285
0.038757 0.774200 0.000000
0.165619 0.903229 0.000000
0.403198 1.000000 0.032257
0.645142 1.000000 0.032257
0.887054 1.000000 0.032257
1.000000 0.871002 0.032257
1.000000 0.629059 0.032257
1.000000 0.510803 0.161285
0.088196 0.903229 0.000000
0.241821 1.000000 0.032257
0.482758 1.000000 0.161285
0.650482 1.000000 0.161285
0.818359 1.000000 0.161285
0.986084 1.000000 0.161285
1.000000 0.846222 0.161285
1.000000 0.678528 0.161285
0.000000 0.148376 0.387085
0.000000 0.019379 0.387085
0.109711 0.000000 0.387085
0.238708 0.000000 0.387085
0.447327 0.000000 0.516144
0.645172 0.000000 0.634308
0.774200 0.000000 0.683838
0.903229 0.000000 0.733215
0.000000 0.277374 0.387085
0.016113 0.201569 0.499969
0.072571 0.016113 0.499969
0.314514 0.016113 0.499969
0.613037 0.000000 0.645172
0.774200 0.000000 0.683838
0.903229 0.000000 0.707397
1.000000 0.032257 0.725708
0.000000 0.387085 0.367706
0.016113 0.443512 0.499969
0.201599 0.294342 0.443542
0.350800 0.201599 0.443542
0.629059 0.145142 0.572601
0.814514 0.088684 0.608765
1.000000 0.032257 0.645142
1.000000 0.161285 0.650482
0.000000 0.387085 0.238708
0.016113 0.499969 0.314514
0.201599 0.443542 0.350800
0.387085 0.387085 0.387085
0.572601 0.330627 0.423370
0.758087 0.274170 0.459656
0.943542 0.217712 0.495911
1.000000 0.290314 0.562347
0.000000 0.516144 0.189270
0.000000 0.645172 0.182709
0.145142 0.629059 0.201599
0.423370 0.572601 0.330627
0.572601 0.479858 0.330627
0.758087 0.330627 0.274170
0.943542 0.217712 0.253876
1.000000 0.290314 0.384918
0.000000 0.645172 0.139709
0.000000 0.774200 0.090363
0.125000 0.814514 0.088684
0.459656 0.758087 0.274170
0.701630 0.758087 0.274170
0.758087 0.572601 0.274170
0.943542 0.423462 0.217712
1.000000 0.373138 0.290314
0.000000 0.774200 0.090363
0.000000 0.903229 0.014984
0.161255 1.000000 0.032257
0.495911 0.943542 0.217712
0.737976 0.943542 0.217712
0.943542 0.907227 0.217712
0.943542 0.665344 0.217712
1.000000 0.550568 0.290314
0.000000 0.903229 0.040802
0.080688 1.000000 0.032257
0.315063 1.000000 0.161285
0.562347 1.000000 0.290314
0.739746 1.000000 0.290314
0.917175 1.000000 0.290314
1.000000 0.905396 0.290314
1.000000 0.727966 0.290314
0.000000 0.197845 0.516144
0.000000 0.068817 0.516144
0.060242 0.000000 0.516144
0.189270 0.000000 0.516144
0.318298 0.000000 0.516144
0.526886 0.000000 0.645172
0.735443 0.000000 0.774200
0.903229 0.000000 0.862427
0.000000 0.326874 0.516144
0.000000 0.247284 0.645172
0.000000 0.032288 0.645172
0.182709 0.000000 0.645172
0.397888 0.000000 0.645172
0.670990 0.000000 0.774200
0.903229 0.000000 0.888245
1.000000 0.032257 0.887054
0.000000 0.455902 0.516144
0.000000 0.462311 0.645172
0.145142 0.330627 0.629059
0.201599 0.145142 0.629059
0.443573 0.145142 0.629059
0.778198 0.088684 0.814514
1.000000 0.032257 0.887054
1.000000 0.161285 0.818359
0.000000 0.516144 0.447327
0.000000 0.645172 0.613037
0.145142 0.572601 0.629059
0.330627 0.423370 0.572601
0.479858 0.330627 0.572601
0.758087 0.274170 0.701630
0.943542 0.217712 0.737976
1.000000 0.290314 0.739746
0.000000 0.516144 0.318298
0.000000 0.645172 0.397888
0.145142 0.629059 0.443573
0.330627 0.572601 0.479858
0.516144 0.516144 0.516144
0.701630 0.459686 0.552429
0.887085 0.403229 0.588684
1.000000 0.419373 0.641937
0.000000 0.645172 0.268860
0.000000 0.774200 0.283905
0.088684 0.814514 0.294434
0.274170 0.758087 0.330627
0.552429 0.701630 0.459686
0.701630 0.608887 0.459686
0.887085 0.459686 0.403229
1.000000 0.419373 0.448425
0.000000 0.774200 0.219452
0.000000 0.903229 0.195831
0.032257 1.000000 0.145203
0.253876 0.943542 0.217712
0.588684 0.887085 0.403229
0.830627 0.887085 0.403229
0.887085 0.701630 0.403229
1.000000 0.583954 0.419373
0.000000 0.903229 0.170013
0.032257 1.000000 0.145203
0.161285 1.000000 0.175415
0.384918 1.000000 0.290314
0.641937 1.000000 0.419373
0.835419 1.000000 0.419373
1.000000 0.970947 0.419373
1.000000 0.777435 0.419373
0.000000 0.247284 0.645172
0.000000 0.118286 0.645172
0.010712 0.000000 0.645172
0.139709 0.000000 0.645172
0.268860 0.000000 0.645172
0.397888 0.000000 0.645172
0.606537 0.000000 0.774200
0.815033 0.000000 0.903229
0.000000 0.376312 0.645172
0.000000 0.296753 0.774200
0.000000 0.103210 0.774200
0.090363 0.000000 0.774200
0.283905 0.000000 0.774200
0.477448 0.000000 0.774200
0.737610 0.000000 0.903229
0.951569 0.032257 1.000000
0.000000 0.505310 0.645172
0.000000 0.490295 0.774200
0.088684 0.366882 0.814514
0.088684 0.125000 0.814514
0.294434 0.088684 0.814514
0.536316 0.088684 0.814514
0.871002 0.032257 1.000000
1.000000 0.161285 0.986084
0.000000 0.634308 0.645172
0.000000 0.683838 0.774200
0.088684 0.608765 0.814514
0.274170 0.459656 0.758087
0.330627 0.274170 0.758087
0.572601 0.274170 0.758087
0.907227 0.217712 0.943542
1.000000 0.290314 0.917175
0.000000 0.645172 0.526886
0.000000 0.774200 0.670990
0.088684 0.814514 0.778198
0.274170 0.701630 0.758087
0.459686 0.552429 0.701630
0.608887 0.459686 0.701630
0.887085 0.403229 0.830627
1.000000 0.419373 0.835419
0.000000 0.645172 0.397888
0.000000 0.774200 0.477448
0.088684 0.814514 0.536316
0.274170 0.758087 0.572601
0.459686 0.701630 0.608887
0.645172 0.645172 0.645172
0.830658 0.588715 0.681458
1.000000 0.548401 0.721497
0.000000 0.774200 0.348358
0.000000 0.903229 0.376404
0.032257 1.000000 0.387115
0.217712 0.943542 0.423462
0.403229 0.887085 0.459686
0.681458 0.830658 0.588715
0.830658 0.737915 0.588715
1.000000 0.601105 0.548401
0.000000 0.903229 0.299011
0.032257 1.000000 0.306549
0.161285 1.000000 0.343109
0.290314 1.000000 0.373138
0.448425 1.000000 0.419373
0.721497 1.000000 0.548401
0.947296 1.000000 0.548401
1.000000 0.826904 0.548401
0.000000 0.296753 0.774200
0.000000 0.167664 0.774200
0.000000 0.038757 0.774200
0.090363 0.000000 0.774200
0.219452 0.000000 0.774200
0.348358 0.000000 0.774200
0.477448 0.000000 0.774200
0.686035 0.000000 0.903229
0.000000 0.425842 0.774200
0.000000 0.346222 0.903229
0.000000 0.165619 0.903229
0.014984 0.000000 0.903229
0.195831 0.000000 0.903229
0.376404 0.000000 0.903229
0.557007 0.000000 0.903229
0.790436 0.032257 1.000000
0.000000 0.554749 0.774200
0.000000 0.526825 0.903229
0.032257 0.403198 1.000000
0.032257 0.161255 1.000000
0.145203 0.032257 1.000000
0.387115 0.032257 1.000000
0.629059 0.032257 1.000000
0.846222 0.161285 1.000000
0.000000 0.683838 0.774200
0.000000 0.707397 0.903229
0.032257 0.645142 1.000000
0.217712 0.495911 0.943542
0.217712 0.253876 0.943542
0.423462 0.217712 0.943542
0.665344 0.217712 0.943542
0.905396 0.290314 1.000000
0.000000 0.774200 0.735443
0.000000 0.888245 0.903229
0.032257 0.887054 1.000000
0.217712 0.737976 0.943542
0.403229 0.588684 0.887085
0.459686 0.403229 0.887085
0.701630 0.403229 0.887085
0.970947 0.419373 1.000000
0.000000 0.774200 0.606537
0.000000 0.903229 0.737610
0.032257 1.000000 0.871002
0.217712 0.943542 0.907227
0.403229 0.830627 0.887085
0.588715 0.681458 0.830658
0.737915 0.588715 0.830658
1.000000 0.548401 0.947296
0.000000 0.774200 0.477448
0.000000 0.903229 0.557007
0.032257 1.000000 0.629059
0.217712 0.943542 0.665344
0.403229 0.887085 0.701630
0.588715 0.830658 0.737915
0.774200 0.774200 0.774200
0.959686 0.717743 0.810486
0.000000 0.903229 0.428009
0.032257 1.000000 0.467682
0.161285 1.000000 0.510803
0.290314 1.000000 0.550568
0.419373 1.000000 0.583954
0.548401 1.000000 0.601105
0.810486 0.959686 0.717743
0.959686 0.866943 0.717743
0.000000 0.346222 0.903229
0.000000 0.217194 0.903229
0.000000 0.088196 0.903229
0.040802 0.000000 0.903229
0.170013 0.000000 0.903229
0.299011 0.000000 0.903229
0.428009 0.000000 0.903229
0.557007 0.000000 0.903229
0.000000 0.475220 0.903229
0.032257 0.403198 1.000000
0.032257 0.241821 1.000000
0.032257 0.080688 1.000000
0.145203 0.032257 1.000000
0.306549 0.032257 1.000000
0.467682 0.032257 1.000000
0.629059 0.032257 1.000000
0.000000 0.604218 0.903229
0.032257 0.564575 1.000000
0.161285 0.482758 1.000000
0.161285 0.315063 1.000000
0.175415 0.161285 1.000000
0.343109 0.161285 1.000000
0.510803 0.161285 1.000000
0.678528 0.161285 1.000000
0.000000 0.733215 0.903229
0.032257 0.725708 1.000000
0.161285 0.650482 1.000000
0.290314 0.562347 1.000000
0.290314 0.384918 1.000000
0.373138 0.290314 1.000000
0.550568 0.290314 1.000000
0.727966 0.290314 1.000000
0.000000 0.862427 0.903229
0.032257 0.887054 1.000000
0.161285 0.818359 1.000000
0.290314 0.739746 1.000000
0.419373 0.641937 1.000000
0.419373 0.448425 1.000000
0.583954 0.419373 1.000000
0.777435 0.419373 1.000000
0.000000 0.903229 0.815033
0.032257 1.000000 0.951569
0.161285 0.986084 1.000000
0.290314 0.917175 1.000000
0.419373 0.835419 1.000000
0.548401 0.721497 1.000000
0.601105 0.548401 1.000000
0.826904 0.548401 1.000000
0.000000 0.903229 0.686035
0.032257 1.000000 0.790436
0.161285 1.000000 0.846222
0.290314 1.000000 0.905396
0.419373 1.000000 0.970947
0.548401 0.947296 1.000000
0.717743 0.810486 0.959686
0.866943 0.717743 0.959686
0.000000 0.903229 0.557007
0.032257 1.000000 0.629059
0.161285 1.000000 0.678528
0.290314 1.000000 0.727966
0.419373 1.000000 0.777435
0.548401 1.000000 0.826904
0.717743 0.959686 0.866943
0.903229 0.903229 0.903229
