Assets/LUTs/warmLUT.3DL
#Created by: Adobe Photoshop Export Color Lookup Plugin
#Description: warmLUT
0 33 66 99 132 165 198 231 264 297 330 363 396 429 462 495 528 561 594 627 660 693 726 759 792 825 858 891 924 957 990 1023
0 0 0
0 51 132
0 101 264
0 152 396
0 203 528
0 253 660
0 304 793
0 354 925
0 405 1057
0 456 1189
0 506 1321
0 557 1453
0 608 1585
0 658 1717
0 709 1849
0 759 1981
0 810 2114
0 861 2246
0 911 2378
0 962 2510
0 1013 2642
0 1063 2774
0 1114 2906
0 1165 3038
0 1215 3170
0 1266 3302
0 1316 3435
0 1367 3567
0 1418 3699
0 1468 3831
0 1519 3963
0 1570 4095
51 132 0
0 132 81
0 233 264
0 284 396
0 335 528
0 385 660
0 436 793
0 487 925
0 537 1057
0 588 1189
0 639 1321
0 689 1453
0 740 1585
0 790 1717
0 841 1849
0 892 1981
0 942 2114
0 993 2246
0 1044 2378
0 1094 2510
0 1145 2642
0 1195 2774
0 1246 2906
0 1297 3038
0 1348 3170
0 1398 3302
0 1449 3435
0 1500 3567
0 1550 3699
0 1600 3831
0 1651 3963
0 1702 4095
101 264 0
0 264 31
0 264 163
0 396 376
0 467 528
0 517 660
0 568 793
0 619 925
0 669 1057
0 720 1189
0 770 1321
0 821 1453
0 872 1585
0 922 1717
0 973 1849
0 1024 1981
0 1074 2114
0 1125 2246
0 1176 2378
0 1226 2510
0 1277 2642
0 1327 2774
0 1378 2906
0 1429 3038
0 1479 3170
0 1530 3302
0 1581 3435
0 1631 3567
0 1682 3699
0 1732 3831
0 1783 3963
0 1834 4095
152 396 0
20 396 0
0 396 112
0 396 244
0 528 458
0 649 660
0 700 793
0 751 925
0 801 1057
0 852 1189
0 903 1321
0 953 1453
0 1004 1585
0 1054 1717
0 1105 1849
0 1156 1981
0 1206 2114
0 1257 2246
0 1308 2378
0 1359 2510
0 1409 2642
0 1460 2774
0 1511 2906
0 1561 3038
0 1611 3170
0 1662 3302
0 1713 3435
0 1763 3567
0 1814 3699
0 1865 3831
0 1916 3963
0 1966 4095
203 528 0
70 528 0
0 528 62
0 528 194
0 528 326
0 660 539
0 793 753
0 883 925
0 933 1057
0 984 1189
0 1034 1321
0 1085 1453
0 1136 1585
0 1186 1717
0 1237 1849
0 1288 1981
0 1339 2114
0 1389 2246
0 1440 2378
0 1490 2510
0 1541 2642
0 1592 2774
0 1642 2906
0 1693 3038
0 1744 3170
0 1794 3302
0 1845 3435
0 1896 3567
0 1946 3699
0 1997 3831
0 2047 3963
0 2098 4095
253 660 0
121 660 0
0 660 11
0 660 143
0 660 275
0 660 407
0 793 621
0 925 834
0 1057 1048
0 1116 1189
0 1167 1321
0 1217 1453
0 1268 1585
0 1319 1717
0 1369 1849
0 1420 1981
0 1471 2114
0 1521 2246
0 1572 2378
0 1623 2510
0 1673 2642
0 1724 2774
0 1774 2906
0 1825 3038
0 1875 3170
0 1926 3302
0 1977 3435
0 2027 3567
0 2078 3699
0 2129 3831
0 2180 3963
0 2230 4095
304 793 0
172 793 0
40 793 0
0 793 92
0 793 225
0 793 357
0 793 489
0 925 702
0 1057 916
0 1189 1129
0 1299 1321
0 1349 1453
0 1400 1585
0 1451 1717
0 1501 1849
0 1552 1981
0 1603 2114
0 1654 2246
0 1704 2378
0 1754 2510
0 1805 2642
0 1856 2774
0 1906 2906
0 1957 3038
0 2008 3170
0 2058 3302
0 2109 3435
0 2159 3567
0 2211 3699
0 2261 3831
0 2311 3963
0 2362 4095
354 925 0
222 925 0
90 925 0
0 925 42
0 925 174
0 925 306
0 925 438
0 925 570
0 1057 784
0 1189 997
0 1321 1211
0 1453 1424
0 1532 1585
0 1583 1717
0 1633 1849
0 1684 1981
0 1735 2114
0 1785 2246
0 1836 2378
0 1887 2510
0 1938 2642
0 1988 2774
0 2038 2906
0 2089 3038
0 2140 3170
0 2191 3302
0 2241 3435
0 2292 3567
0 2342 3699
0 2393 3831
0 2444 3963
0 2494 4095
405 1057 0
273 1057 0
141 1057 0
9 1057 0
0 1057 123
0 1057 255
0 1057 388
0 1057 520
0 1057 652
0 1189 865
0 1321 1079
0 1453 1292
0 1585 1506
0 1715 1717
0 1766 1849
0 1816 1981
0 1867 2114
0 1917 2246
0 1968 2378
0 2019 2510
0 2069 2642
0 2120 2774
0 2170 2906
0 2222 3038
0 2272 3170
0 2323 3302
0 2373 3435
0 2424 3567
0 2474 3699
0 2525 3831
0 2575 3963
0 2626 4095
456 1189 0
324 1189 0
192 1189 0
59 1189 0
0 1189 73
0 1189 205
0 1189 337
0 1189 469
0 1189 601
0 1189 733
0 1321 947
0 1453 1160
0 1585 1374
0 1717 1587
0 1849 1801
0 1949 1981
0 1999 2114
0 2049 2246
0 2100 2378
0 2151 2510
0 2201 2642
0 2252 2774
0 2303 2906
0 2354 3038
0 2404 3170
0 2455 3302
0 2506 3435
0 2556 3567
0 2607 3699
0 2657 3831
0 2708 3963
0 2758 4095
506 1321 0
374 1321 0
242 1321 0
110 1321 0
0 1321 22
0 1321 154
0 1321 286
0 1321 418
0 1321 550
0 1321 682
0 1321 815
0 1453 1028
0 1585 1242
0 1717 1455
0 1849 1669
0 1981 1882
0 2114 2096
0 2182 2246
0 2232 2378
0 2283 2510
0 2334 2642
0 2384 2774
0 2435 2906
0 2486 3038
0 2536 3170
0 2586 3302
0 2637 3435
0 2688 3567
0 2739 3699
0 2789 3831
0 2840 3963
0 2890 4095
557 1453 0
425 1453 0
293 1453 0
161 1453 0
29 1453 0
0 1453 104
0 1453 236
0 1453 368
0 1453 500
0 1453 632
0 1453 764
0 1453 896
0 1585 1109
0 1717 1323
0 1849 1537
0 1981 1750
0 2114 1964
0 2246 2178
0 2364 2378
0 2415 2510
0 2466 2642
0 2516 2774
0 2567 2906
0 2618 3038
0 2668 3170
0 2719 3302
0 2770 3435
0 2820 3567
0 2871 3699
0 2922 3831
0 2972 3963
0 3022 4095
608 1585 0
476 1585 0
343 1585 0
211 1585 0
79 1585 0
0 1585 53
0 1585 185
0 1585 317
0 1585 449
0 1585 581
0 1585 713
0 1585 846
0 1585 978
0 1717 1191
0 1849 1405
0 1981 1618
0 2114 1832
0 2246 2046
0 2378 2259
0 2510 2473
0 2597 2642
0 2648 2774
0 2699 2906
0 2750 3038
0 2800 3170
0 2851 3302
0 2901 3435
0 2952 3567
0 3003 3699
0 3054 3831
0 3104 3963
0 3155 4095
658 1717 0
526 1717 0
394 1717 0
262 1717 0
130 1717 0
0 1717 2
0 1717 134
0 1717 267
0 1717 399
0 1717 531
0 1717 663
0 1717 795
0 1717 927
0 1717 1059
0 1849 1273
0 1981 1486
0 2114 1700
0 2246 1913
0 2378 2127
0 2510 2341
0 2642 2554
0 2774 2767
0 2831 2906
0 2882 3038
0 2933 3170
0 2983 3302
0 3034 3435
0 3084 3567
0 3135 3699
0 3185 3831
0 3236 3963
0 3287 4095
709 1849 0
577 1849 0
445 1849 0
312 1849 0
181 1849 0
48 1849 0
0 1849 83
0 1849 216
0 1849 348
0 1849 480
0 1849 612
0 1849 744
0 1849 876
0 1849 1008
0 1849 1140
0 1981 1354
0 2114 1568
0 2246 1781
0 2378 1995
0 2510 2208
0 2642 2422
0 2774 2635
0 2906 2849
0 3014 3038
0 3064 3170
0 3115 3302
0 3165 3435
0 3217 3567
0 3267 3699
0 3317 3831
0 3368 3963
0 3419 4095
759 1981 0
627 1981 0
495 1981 0
363 1981 0
231 1981 0
99 1981 0
0 1981 33
0 1981 165
0 1981 298
0 1981 430
0 1981 562
0 1981 694
0 1981 826
0 1981 958
0 1981 1090
0 1981 1222
0 2114 1436
0 2246 1649
0 2378 1863
0 2510 2076
0 2642 2290
0 2774 2503
0 2906 2717
0 3038 2931
0 3170 3144
0 3248 3302
0 3298 3435
0 3348 3567
0 3399 3699
0 3450 3831
0 3500 3963
0 3551 4095
810 2114 0
678 2114 0
546 2114 0
414 2114 0
282 2114 0
150 2114 0
17 2114 0
0 2114 115
0 2114 247
0 2114 379
0 2114 511
0 2114 643
0 2114 775
0 2114 907
0 2114 1039
0 2114 1171
0 2114 1303
0 2246 1517
0 2378 1731
0 2510 1944
0 2642 2158
0 2774 2371
0 2906 2585
0 3038 2799
0 3170 3012
0 3302 3226
0 3430 3435
0 3480 3567
0 3532 3699
0 3582 3831
0 3633 3963
0 3683 4095
861 2246 0
729 2246 0
596 2246 0
464 2246 0
332 2246 0
200 2246 0
68 2246 0
0 2246 64
0 2246 196
0 2246 328
0 2246 460
0 2246 592
0 2246 724
0 2246 856
0 2246 989
0 2246 1121
0 2246 1253
0 2246 1385
0 2378 1599
0 2510 1812
0 2642 2025
0 2774 2239
0 2906 2453
0 3038 2666
0 3170 2880
0 3302 3094
0 3435 3307
0 3567 3521
0 3663 3699
0 3714 3831
0 3765 3963
0 3815 4095
911 2378 0
779 2378 0
647 2378 0
515 2378 0
383 2378 0
251 2378 0
119 2378 0
0 2378 13
0 2378 145
0 2378 277
0 2378 409
0 2378 542
0 2378 674
0 2378 806
0 2378 938
0 2378 1070
0 2378 1202
0 2378 1334
0 2378 1466
0 2510 1680
0 2642 1894
0 2774 2107
0 2906 2321
0 3038 2534
0 3170 2748
0 3302 2961
0 3435 3175
0 3567 3388
0 3699 3602
0 3831 3816
0 3897 3963
0 3947 4095
962 2510 0
830 2510 0
698 2510 0
566 2510 0
434 2510 0
301 2510 0
170 2510 0
37 2510 0
0 2510 95
0 2510 227
0 2510 359
0 2510 491
0 2510 623
0 2510 755
0 2510 887
0 2510 1020
0 2510 1151
0 2510 1284
0 2510 1416
0 2510 1548
0 2642 1762
0 2774 1975
0 2906 2189
0 3038 2402
0 3170 2615
0 3302 2829
0 3435 3043
0 3567 3257
0 3699 3470
0 3831 3683
0 3963 3897
0 4080 4095
1013 2642 0
880 2642 0
748 2642 0
617 2642 0
484 2642 0
352 2642 0
220 2642 0
88 2642 0
0 2642 44
0 2642 176
0 2642 308
0 2642 441
0 2642 572
0 2642 704
0 2642 837
0 2642 969
0 2642 1101
0 2642 1233
0 2642 1365
0 2642 1497
0 2642 1629
0 2774 1843
0 2906 2056
0 3038 2270
0 3170 2484
0 3302 2697
0 3435 2910
0 3567 3124
0 3699 3338
0 3831 3551
0 3963 3765
0 4095 3978
1063 2774 0
931 2774 0
799 2774 0
667 2774 0
535 2774 0
403 2774 0
271 2774 0
139 2774 0
7 2774 0
0 2774 125
0 2774 257
0 2774 389
0 2774 521
0 2774 654
0 2774 786
0 2774 918
0 2774 1050
0 2774 1182
0 2774 1315
0 2774 1447
0 2774 1579
0 2774 1711
0 2906 1924
0 3038 2138
0 3170 2351
0 3302 2565
0 3435 2779
0 3567 2992
0 3699 3206
0 3831 3419
0 3963 3633
0 4095 3846
1114 2906 0
982 2906 0
850 2906 0
717 2906 0
585 2906 0
453 2906 0
321 2906 0
189 2906 0
57 2906 0
0 2906 75
0 2906 207
0 2906 339
0 2906 471
0 2906 603
0 2906 735
0 2906 868
0 2906 1000
0 2906 1132
0 2906 1264
0 2906 1396
0 2906 1528
0 2906 1660
0 2906 1792
0 3038 2006
0 3170 2219
0 3302 2433
0 3435 2646
0 3567 2860
0 3699 3074
0 3831 3287
0 3963 3500
0 4095 3714
1165 3038 0
1032 3038 0
901 3038 0
768 3038 0
636 3038 0
504 3038 0
372 3038 0
240 3038 0
108 3038 0
0 3038 24
0 3038 156
0 3038 289
0 3038 421
0 3038 553
0 3038 685
0 3038 817
0 3038 949
0 3038 1081
0 3038 1214
0 3038 1346
0 3038 1478
0 3038 1610
0 3038 1742
0 3038 1874
0 3170 2087
0 3302 2301
0 3435 2515
0 3567 2728
0 3699 2941
0 3831 3155
0 3963 3369
0 4095 3582
1215 3170 0
1083 3170 0
951 3170 0
819 3170 0
687 3170 0
555 3170 0
423 3170 0
290 3170 0
159 3170 0
26 3170 0
0 3170 106
0 3170 238
0 3170 370
0 3170 502
0 3170 634
0 3170 766
0 3170 899
0 3170 1030
0 3170 1163
0 3170 1295
0 3170 1427
0 3170 1559
0 3170 1691
0 3170 1823
0 3170 1955
0 3302 2169
0 3435 2382
0 3567 2596
0 3699 2809
0 3831 3023
0 3963 3236
0 4095 3450
1266 3302 0
1134 3302 0
1001 3302 0
869 3302 0
738 3302 0
605 3302 0
473 3302 0
341 3302 0
209 3302 0
77 3302 0
0 3302 55
0 3302 187
0 3302 319
0 3302 452
0 3302 584
0 3302 716
0 3302 847
0 3302 980
0 3302 1112
0 3302 1244
0 3302 1376
0 3302 1509
0 3302 1640
0 3302 1772
0 3302 1904
0 3302 2037
0 3435 2251
0 3567 2463
0 3699 2677
0 3831 2891
0 3963 3105
0 4095 3318
1316 3435 0
1184 3435 0
1052 3435 0
920 3435 0
788 3435 0
656 3435 0
524 3435 0
392 3435 0
260 3435 0
127 3435 0
0 3435 4
0 3435 137
0 3435 268
0 3435 401
0 3435 532
0 3435 665
0 3435 797
0 3435 929
0 3435 1062
0 3435 1193
0 3435 1326
0 3435 1457
0 3435 1590
0 3435 1721
0 3435 1854
0 3435 1986
0 3435 2118
0 3567 2332
0 3699 2546
0 3831 2759
0 3963 2972
0 4095 3186
1367 3567 0
1235 3567 0
1103 3567 0
971 3567 0
839 3567 0
707 3567 0
575 3567 0
442 3567 0
310 3567 0
178 3567 0
46 3567 0
0 3567 86
0 3567 218
0 3567 350
0 3567 482
0 3567 614
0 3567 746
0 3567 879
0 3567 1011
0 3567 1142
0 3567 1275
0 3567 1407
0 3567 1539
0 3567 1671
0 3567 1803
0 3567 1936
0 3567 2067
0 3567 2200
0 3699 2413
0 3831 2626
0 3963 2841
0 4095 3053
1418 3699 0
1286 3699 0
1153 3699 0
1021 3699 0
