Assets/LUTs/warmLUT.CUBE
#Created by: Adobe Photoshop Export Color Lookup Plugin
TITLE "warmLUT"
#LUT size
LUT_3D_SIZE 5
#data domain
#LUT data points
DOMAIN_MIN 0.000000 0.000000 0.000000
DOMAIN_MAX 0.903226 0.903226 0.903226
0.000000 0.000000 0.000000
0.225800 0.000000 0.086548
0.451599 0.000000 0.173096
0.677429 0.000000 0.259674
0.903229 0.000000 0.346222
0.086548 0.225800 0.000000
0.225800 0.139252 0.000000
0.451599 0.052704 0.000000
0.677429 0.000000 0.033905
0.903229 0.000000 0.120392
0.173096 0.451599 0.000000
0.398895 0.451599 0.000000
0.451599 0.278503 0.000000
0.677429 0.192017 0.000000
0.903229 0.105408 0.000000
0.259674 0.677429 0.000000
0.485413 0.677429 0.000000
0.677429 0.643524 0.000000
0.677429 0.417755 0.000000
0.903229 0.331207 0.000000
0.346222 0.903229 0.000000
0.572021 0.903229 0.000000
0.797821 0.903229 0.000000
0.903229 0.782837 0.000000
0.903229 0.557007 0.000000
0.000000 0.086548 0.225800
0.139252 0.000000 0.225800
0.451599 0.000000 0.398895
0.677429 0.000000 0.485413
0.903229 0.000000 0.572021
0.000000 0.225800 0.139252
0.225800 0.225800 0.225800
0.550385 0.127014 0.289307
0.875000 0.028198 0.352783
1.000000 0.129028 0.462860
0.000000 0.451599 0.052704
0.289307 0.550385 0.127014
0.550385 0.388092 0.127014
0.875000 0.127014 0.028198
1.000000 0.129028 0.172607
0.033905 0.677429 0.000000
0.352783 0.875000 0.028198
0.776184 0.875000 0.028198
0.875000 0.550415 0.028198
1.000000 0.375916 0.129028
0.120392 0.903229 0.000000
0.462860 1.000000 0.129028
0.753113 1.000000 0.129028
1.000000 0.956421 0.129028
1.000000 0.666168 0.129028
0.000000 0.173096 0.451599
0.052704 0.000000 0.451599
0.278503 0.000000 0.451599
0.643524 0.000000 0.677429
0.903229 0.000000 0.797821
0.000000 0.398895 0.451599
0.127014 0.289307 0.550385
0.388092 0.127014 0.550385
0.875000 0.028198 0.776184
1.000000 0.129028 0.753113
0.000000 0.451599 0.278503
0.127014 0.550385 0.388092
0.451599 0.451599 0.451599
0.776215 0.352783 0.515076
1.000000 0.354828 0.602112
0.000000 0.677429 0.192017
0.028198 0.875000 0.127014
0.515076 0.776215 0.352783
0.776215 0.613922 0.352783
1.000000 0.430115 0.354828
0.000000 0.903229 0.105408
0.172607 1.000000 0.129028
0.602112 1.000000 0.354828
0.924713 1.000000 0.354828
1.000000 0.752716 0.354828
0.000000 0.259674 0.677429
0.000000 0.033905 0.677429
0.192017 0.000000 0.677429
0.417755 0.000000 0.677429
0.782837 0.000000 0.903229
0.000000 0.485413 0.677429
0.028198 0.352783 0.875000
0.127014 0.028198 0.875000
0.550415 0.028198 0.875000
0.956421 0.129028 1.000000
0.000000 0.677429 0.643524
0.028198 0.776184 0.875000
0.352783 0.515076 0.776215
0.613922 0.352783 0.776215
1.000000 0.354828 0.924713
0.000000 0.677429 0.417755
0.028198 0.875000 0.550415
0.352783 0.776215 0.613922
0.677429 0.677429 0.677429
1.000000 0.580658 0.741394
0.000000 0.903229 0.331207
0.129028 1.000000 0.375916
0.354828 1.000000 0.430115
0.741394 1.000000 0.580658
1.000000 0.839264 0.580658
0.000000 0.346222 0.903229
0.000000 0.120392 0.903229
0.105408 0.000000 0.903229
0.331207 0.000000 0.903229
0.557007 0.000000 0.903229
0.000000 0.572021 0.903229
0.129028 0.462860 1.000000
0.129028 0.172607 1.000000
0.375916 0.129028 1.000000
0.666168 0.129028 1.000000
0.000000 0.797821 0.903229
0.129028 0.753113 1.000000
0.354828 0.602112 1.000000
0.430115 0.354828 1.000000
0.752716 0.354828 1.000000
0.000000 0.903229 0.782837
0.129028 1.000000 0.956421
0.354828 0.924713 1.000000
0.580658 0.741394 1.000000
0.839264 0.580658 1.000000
0.000000 0.903229 0.557007
0.129028 1.000000 0.666168
0.354828 1.000000 0.752716
0.580658 1.000000 0.839264
0.903229 0.903229 0.903229
